Fancymaniac/robot-analytics/Robotics/training_data.csv
Joint_1,Joint_2,Joint_3,Joint_4,Joint_5,Joint_6,End_X,End_Y,End_Z,Surf_X,Surf_Y,Surf_Z
-1.9915415505195453,-0.9246463691119091,2.8747315857216886,-0.7567671247305441,-3.058567025948125,-2.497898771009763,647.195217136827,35.312717089829526,360.4827011649298,174.1567496764443,887.1872138219474,494.748753504494
-1.8439966651591941,2.085644157367965,1.641245012844097,-0.3355858446242048,1.9457835297750607,1.4891671203756287,697.2201510474653,257.4980974365383,318.57839506680176,174.6476313654371,887.6645945589253,494.21852449795597
2.15905236529526,-2.818505178187574,-2.0544105729958515,-1.4830468758591673,-1.4278816738061992,2.953616054097308,414.82257562297576,400.6065238086117,448.4852984835235,174.1567496764443,887.1872138219474,494.748753504494
-1.817975538754798,2.1319173261002913,-1.708093196452675,0.2937648977485656,2.2645505434241944,1.929300683622948,770.0159748221379,457.8837774282187,636.9745968324536,176.01849754705378,887.6659622049433,517.177634324813
0.03502249734811347,1.2635785249558094,1.428565508760827,-2.2401339016414563,0.45854812220137653,1.799469523172558,760.2177908910804,800.158441516894,510.1776663158496,508.3028411611554,1187.45880499025,830.566564709413
2.2875694061229073,-0.18844131258777352,1.727385796851519,-2.4864898144129244,-0.08204776209770959,-3.0442230759044264,123.2791430595358,298.82668845185646,532.1280561021119,143.3772098515795,888.6271136791881,524.6363522020561
-0.441884635392217,0.914238367240884,-1.6091722234230348,2.562208339930324,-2.9643241363047084,-2.9550118304123387,17.000096501556317,739.4163492456605,449.72569422317986,136.78179912234378,888.8222006162391,488.96603016155
-1.2004898147335954,1.7859628213598393,-0.6068343290175564,2.142600333734457,0.002633560265783874,2.113143412622522,460.99706562895784,628.4289615793194,962.9716626814095,533.052362006541,1149.9599204910958,1000.9913703782095
3.057744376138797,-2.389379733046733,2.0888872685715807,1.8837936085264895,-0.06810486711429942,1.892909508897664,326.2547157705351,257.5693147325132,695.9794653631038,175.46801298059938,887.1885220050943,516.709641164965
-2.1376916281121288,1.1352511736650266,0.3763610111097111,1.2029154678773475,0.11275880230278412,-2.4592260455704613,991.8959715708882,404.16335792155013,286.0586624514963,174.6476313654371,887.6645945589253,494.21852449795597
0.8100480339823113,0.1744360759897794,1.3518599068911268,-2.640940128271674,0.13903687957689703,-0.35490611504531433,917.1021986652243,277.41709860995235,753.5766471863747,535.8768926792286,1149.98173110692,1000.8445685523207
0.5283607487306834,-2.759799806171894,1.0164123785488028,1.436234391340502,-2.573728102387597,-1.7411893539987162,351.27580243260445,249.07535568618755,672.8715973106382,175.46801298059938,887.1885220050943,516.709641164965
-1.0135496937758632,3.052844348924461,-0.5436172601044715,0.22335848754921628,-0.7334093986450414,2.2413647968407213,451.8820760182749,244.06330712359582,863.707153432993,176.01849754705378,887.6659622049433,517.177634324813
2.189439736340539,-1.8330041656880234,2.635048620375378,1.9761874855060597,1.6073496754421486,-2.2738402018161823,741.6886417187521,169.16236690939968,686.7486489489366,176.01849754705378,887.6659622049433,517.177634324813
-0.17427615017025433,0.3795135841226931,-1.701578108894516,0.8362453601247921,-2.567087540527171,1.4842345133795183,444.90091338737426,900.2540996206991,500.45627669595683,199.42881169859862,936.2348268584715,537.315225481482
0.032705682506809275,-2.1606510524804845,-1.1425599554950343,0.7658728322090522,1.1603222142571479,1.6558978097612354,32.02216881577813,764.528545510091,528.1010217385838,138.92750271096108,888.8243412795712,524.902028151412
1.1003790288963948,2.2154617077101975,-0.5891224160003388,1.902139385400205,0.4795620412234127,-0.16934415421778093,615.2875328160827,21.046787274066503,855.8373428934418,175.46801298059938,887.1885220050943,516.709641164965
0.45175025152313264,2.102132384937538,2.327651970433812,-2.0003071505383057,3.097907040538243,0.009625065289577961,764.135386500153,127.65592775804512,763.4371296156329,176.01849754705378,887.6659622049433,517.177634324813
1.22728814078779,1.3541319807487477,-2.5688473355398136,-2.308305674560652,0.6423212874912969,0.8682277464132122,229.7725971261071,374.38817975588756,916.1992267674389,143.3772098515795,888.6271136791881,524.6363522020561
-1.3849195703231554,2.0747130994348497,-1.6864967081797007,-1.3109084403408013,-0.8778220994789212,3.1091216772364163,289.2589975677371,476.4496095798666,936.8816672460022,176.01849754705378,887.6659622049433,517.177634324813
3.0345715489752836,-1.8690735840707113,2.167346291022085,-1.2024978662332602,-2.794650236625683,1.3499630353884866,46.71889051863065,301.7806492746663,960.5844571874866,-208.1982517952714,967.9128549019696,1108.4579420060531
-0.6487627658768904,-1.3414755462154333,-2.6171116929086593,1.5894333061236052,-0.10349705259163988,-0.7336344950496323,734.1943357536311,673.052511427747,135.48489938560948,242.0128000857644,1043.167630439864,428.577532478993
3.0090298114159966,-2.0613188251082333,2.4535314232158205,1.9360539052720096,2.9215639094199792,-0.0359443947776068,782.8117445318379,763.8318562514324,937.0592013876179,535.8768926792286,1149.98173110692,1000.8445685523207
-1.569747337853079,-0.9252801881707855,2.407031135525119,-0.7970337280367952,0.34275030795009886,3.028043640886483,768.7004267175153,277.651584875066,265.1814395680702,174.6476313654371,887.6645945589253,494.21852449795597
-1.9966868952352885,-0.8406007286133521,3.045536059997903,-1.7374837346802727,-2.6922868599824508,0.2388901899160647,423.1706055399862,55.62347591331562,870.8008462293932,175.46801298059938,887.1885220050943,516.709641164965
1.146605477976422,-0.2750392958711787,0.4341446363224537,-0.6153739715827355,0.3104695308418357,1.5415165049535657,890.837648489778,967.5053729692,118.59926556594391,242.0128000857644,1043.167630439864,428.577532478993
-0.3584697729155719,1.8160680465337453,1.163427155299006,2.638507857083649,2.0217699073852806,2.2571208311351896,456.4427994032478,221.49039598362708,889.5945175333318,176.01849754705378,887.6659622049433,517.177634324813
-3.070154813306573,-1.5358195767449556,-1.4825648119028267,2.55747047703972,-1.4491776521599742,-1.1197783872214044,757.8731133773488,895.4511406280102,569.9232256389807,508.3028411611554,1187.45880499025,830.566564709413
2.6015976952736155,-0.3611863034742093,0.4278327980303729,-2.2353989433699772,2.5536106030018457,-0.01279810989850283,792.2302770714385,228.0122443653846,439.58935033924996,174.6476313654371,887.6645945589253,494.21852449795597
1.2291979026342297,2.170854603262712,1.3855862184181031,-1.369025019573394,-2.693353613103342,2.075163224335249,364.75480942793047,616.8544947305292,308.9859574722452,174.6476313654371,887.6645945589253,494.21852449795597
-2.325834424446671,1.2944028788034663,-0.430897375310324,-0.08496457223098153,0.12483868895423234,-1.1773378553307585,556.0219041145582,506.6989965261103,57.184917630743406,112.3686662237424,995.1909778616171,1.825652568613233
-1.7569549512125893,1.4530753778728256,1.1501459836647898,-1.8913686636941316,0.575674524949302,-0.09583543929389604,203.5660543681106,760.5401671879544,53.46672717504386,112.3686662237424,995.1909778616171,1.825652568613233
0.3852203438402535,-0.18216850773219306,-0.8656369245624127,-0.19170561215915116,-1.880475371146766,-1.9246347975650306,691.2710249275465,561.4171320902685,594.7875894874136,176.01849754705378,887.6659622049433,517.177634324813
0.15141931124153807,-2.1932050759714468,0.5518705450930685,-2.5563144972255616,-1.530954895609324,-2.002215272851465,669.0670602391775,598.6710861987877,178.2198637055329,195.37581603121032,936.2307833832895,469.436118167299
0.8865239080891447,2.6925193795078046,1.4833433424949867,0.18936273370228918,2.540762862439581,-2.980247966713772,15.604482868466384,291.87863846306084,598.3173457107683,138.92750271096108,888.8243412795712,524.902028151412
1.3599694402742601,0.25151850463456604,2.6789748689928183,0.8791940302584074,-2.241499701570696,0.2561834972826058,144.22221061507145,766.0242459883264,451.8504150806738,142.7652792630585,888.5569904815491,488.60877816347397
0.6147646411562642,-2.905785406981014,-2.8795990457610103,0.5010730785718223,1.9236539896687832,-3.0634174423012395,232.0908315440786,253.19654252867642,656.6097911637341,175.46801298059938,887.1885220050943,516.709641164965
0.8223128181026795,1.5459154282449488,-1.9446872840346656,1.4604463957230722,1.173040646448407,2.9523820449028824,695.8475360011126,393.0060350845369,578.0356001437943,176.01849754705378,887.6659622049433,517.177634324813
0.699989998458892,-2.0095037947655134,-0.03648903070681753,2.5091945092002748,-0.534283016182286,0.8563505857718372,82.22674167181876,107.23651657820166,501.6066390833036,136.78179912234378,888.8222006162391,488.96603016155
0.42004612543526854,-0.5144711633141936,3.0525414274109206,2.427437315709848,1.2477483395511255,-0.24432866684228527,127.87877116095925,793.3086419608888,504.51472801003126,143.1824994052897,888.5574067216411,495.596333328169
0.20179496324473511,0.16747111511083812,-1.3662171523478535,2.9129272033108844,-0.521093191694749,-1.8443374065835847,869.489411315019,578.828407973257,723.3042476463207,508.3028411611554,1187.45880499025,830.566564709413
-0.22204905703647126,1.835507777374307,-3.094581264278221,-0.4336181116353499,0.9912747815178555,0.07153619066291528,479.9554834529687,485.44305269301157,241.70598791061525,174.6476313654371,887.6645945589253,494.21852449795597
-0.2388406029880139,-0.279864112948347,-2.653406214742163,-2.510997884748555,-2.1151998822031772,3.071037433719636,57.37656426083226,726.9244779728105,724.27194001055,102.03046636416582,935.6172269857759,569.177129010804
2.1005129448331807,2.264001356292207,2.3076829529844547,-2.449516787338322,-1.590154332173909,-1.3959569256536957,591.1994053261374,511.7992332927113,643.2416671801977,176.01849754705378,887.6659622049433,517.177634324813
3.036111049494986,1.210689623216071,-1.075885238064242,2.0708913911484697,-0.09017285356782212,2.9401537413621055,346.9994938792352,38.28321671019508,111.92818473507238,174.1567496764443,887.1872138219474,494.748753504494
0.9862504637604799,-1.0864667420575271,1.9902057218636973,2.286883162443785,0.06228932046630753,2.693953198835284,881.9140731466322,861.6958683720248,651.3718222076186,508.3028411611554,1187.45880499025,830.566564709413
2.4670983507531297,-2.135254227389505,0.010229369938739463,-0.3025523101528753,-1.2461799047349267,1.3286948376345098,107.13646892844663,996.4099843834642,556.9136039294057,96.3111847008249,940.8323971551339,553.489815111987
2.9514441110702405,2.071134167987829,1.2621646438239251,2.4512097205646146,-1.0897040919593528,-2.530946752189519,278.85579933220595,70.57183674312483,50.93346827887424,174.1567496764443,887.1872138219474,494.748753504494
-2.778291246228873,2.6981241605984065,-2.3005971713304296,-2.139997296990786,2.266542270808462,3.088036806679935,393.2375263650549,910.9308423275174,717.6202557484636,194.74059263531092,936.4561326183984,542.604046311804
-2.2579206245910868,-2.0377996107804286,0.5455152035065711,-1.7773201836754167,1.0626476574638755,-2.7062228417390886,591.6981936646148,445.2538232113968,731.2541171702942,176.01849754705378,887.6659622049433,517.177634324813
2.581866310159443,-0.26622472194155433,1.3880935999025477,2.1549213683643673,2.1592873631940135,0.967797176933173,88.99309717457837,899.7906060644505,150.45136469460672,65.0453799186954,1043.851391964895,199.995676445362
-0.7206172111073812,2.9665251743545635,2.512969617555923,-0.3680861585454771,-1.8817800029475749,-3.0161046728989027,333.62903679712366,679.8991117730438,15.617976271301792,112.3686662237424,995.1909778616171,1.825652568613233
1.221703421695743,-2.422824893788481,0.9557801075896499,1.2022436300357766,2.149194015602986,1.8147304873729366,573.9675166474698,741.7016121576767,969.2709442007503,535.8768926792286,1149.98173110692,1000.8445685523207
3.01145332751255,-2.2633568295628175,1.1390164533106004,1.9715149236642713,1.4569851150278827,1.8122050674186942,557.3790320771967,712.6078149380779,858.2650196530969,535.8768926792286,1149.98173110692,1000.8445685523207
-0.058450508768403964,-0.9893569358596057,1.381663975990576,2.435697786320147,2.684603420399023,-0.01222209119216,149.70532300426132,135.87666739735127,486.13054861020487,174.1567496764443,887.1872138219474,494.748753504494
1.1081984359141863,2.5659881464280243,2.827021393987282,2.465617255039028,-2.0329421169852004,2.3227991686093965,798.514856462539,521.3572168708818,500.8094069474214,176.01849754705378,887.6659622049433,517.177634324813
-2.8110501475059397,2.768234192640538,1.2777243535386935,-1.948328926298194,-0.40416158345542685,0.21636308996658427,340.92651804070607,451.0686352312154,465.29177116910415,174.1567496764443,887.1872138219474,494.748753504494
2.9069828233287263,2.244625713056931,1.1502350890752364,-1.4805230224864667,0.7089174110295522,-0.2664083720163828,607.307733730713,970.3603270658679,599.1286127688345,508.3028411611554,1187.45880499025,830.566564709413
-2.0660886849085625,-1.2722514598234478,1.3281321120133596,1.5929434257307262,1.3748966295735645,2.930198344252493,876.4401605647655,261.9738121485407,519.6687100890958,176.01849754705378,887.6659622049433,517.177634324813
-2.7241866164706545,-0.7021437605488123,2.52578926234814,-1.6131973344711636,1.8842537208642094,2.9016907175662743,767.8092746927513,582.0241558565687,592.7124919657188,176.01849754705378,887.6659622049433,517.177634324813
-0.3397560801651469,-0.14979966900037356,2.640282858529054,1.5017142544032165,3.026523966773598,0.3032945695640539,636.9535577600143,727.9479518187495,670.7306299678726,199.42881169859862,936.2348268584715,537.315225481482
-2.689120160482494,-0.21206395988189186,-1.0905514273481152,-0.5909592052340824,0.5557752460040031,0.20063835107422534,840.3819319413672,334.8217383760153,436.4523707945902,174.6476313654371,887.6645945589253,494.21852449795597
0.4060325696371674,1.5127492327852812,2.6065985909418528,-1.31710696122825,-0.8916770561869534,-1.4571640825414798,211.62080240630553,634.7835921992282,635.6558464962494,175.46801298059938,887.1885220050943,516.709641164965
-1.9071977302703242,-2.485845625704858,-0.9122864020980606,-2.7138142037043846,0.81316655551784,-0.6863794531592724,603.1527773730353,648.4572245960557,988.6318560492048,535.8768926792286,1149.98173110692,1000.8445685523207
2.9254623211716675,2.783067084037172,2.5594738496866167,-3.0338092470084,0.284281515356962,2.3004431348145085,778.7452915564262,963.2378660617779,972.1113586195354,561.1011082605346,1175.6331118776502,999.5233521193206
-2.183925887033813,1.392948394955071,-0.28704794715301807,-0.30602156738731523,0.4400041926960263,-2.08713515158881,346.67017785814403,555.0557279473475,228.97072015589336,174.6476313654371,887.6645945589253,494.21852449795597
-2.6317544630597975,0.39419067605196867,1.0495828581550324,-2.0278071554299606,-1.2612060117852368,2.411544014802029,664.7387322500842,735.8496640362588,311.2763905702207,195.37581603121032,936.2307833832895,469.436118167299
0.4372837155479359,-1.2728829841244043,0.06033003925472613,-1.3371592344553953,2.5034511643192054,-0.29272220877193167,576.6229983482584,809.1191593321091,273.61224601038083,242.0128000857644,1043.167630439864,428.577532478993
2.093233344964548,0.6393356416563964,1.9281238567096235,1.7226439752300662,-0.07222763333605053,-2.8423134761660664,906.7272744127707,861.8547330663548,924.2736029237096,561.1011082605346,1175.6331118776502,999.5233521193206
3.0386086206500496,-1.144292597206973,-0.7391246508842175,-0.9528478653210057,1.0399173044222865,-2.4276932853442625,696.0991154691876,793.7134765743185,15.970418082178139,112.3686662237424,995.1909778616171,1.825652568613233
-1.2118027328963483,2.655894030250315,2.195684274170948,1.5236282434304398,-2.013907518180588,-0.6422148560161145,342.38615729286016,219.77988170049179,694.670887707917,175.46801298059938,887.1885220050943,516.709641164965
0.6391243671433839,-0.769398640575838,1.035508464609883,0.622123026384735,1.3923789066755337,1.6572782479265653,247.86831522959963,749.8456591446325,737.5852152177367,169.84324129226673,932.6115121259563,565.128273032607
0.4340573090370081,1.3286085694276304,1.2594591588046322,2.290541467840707,1.8207627016512395,0.4789232857141532,549.941203122291,697.641911923822,34.5701123307316,112.3686662237424,995.1909778616171,1.825652568613233
-1.5728313776502023,-3.0722733373815037,0.4000923643549057,-1.783257799744266,0.7977407674989649,1.5736453835582669,48.75630395520958,351.72802857028495,225.71772350729836,136.78179912234378,888.8222006162391,488.96603016155
0.4418255594434224,-2.815404321620423,-2.2956390003146856,1.9945175971262925,-0.3280788803202963,-2.3130309371256277,510.7178037022574,455.03820079555436,840.8340279942943,176.01849754705378,887.6659622049433,517.177634324813
-1.9344970228589196,1.769381560269288,0.0936896648362393,-1.8385449704786079,1.0087278699958517,-0.5114621131654777,179.42133630136036,656.6890910152462,651.4967551151141,143.3772098515795,888.6271136791881,524.6363522020561
-2.378136618887407,1.0970132909671495,-2.2530980971255095,-0.26498716699199587,-2.8392371249834003,3.0759710907646136,304.2809834826321,279.69079923343673,921.6089550263334,175.46801298059938,887.1885220050943,516.709641164965
-2.2939371915325126,1.321730003499881,0.6989995256165802,1.1493385266572105,1.9027885467259482,-0.4821104578863258,266.7494444530038,218.11606380765625,375.34040625276856,174.1567496764443,887.1872138219474,494.748753504494
-2.142523292475501,2.315249216537188,1.3912354904197235,-0.2227822300064135,0.8948102101107986,-1.2305112016355382,751.9550767079986,612.8074056349614,257.9859140327005,195.37581603121032,936.2307833832895,469.436118167299
-1.5382640754731562,-0.9990988271583223,-2.17092989323323,1.7363215862594625,2.23695090117448,0.5808809868540803,493.0285655695869,310.66496384513243,679.0162712483964,175.46801298059938,887.1885220050943,516.709641164965
-1.1486399128090867,-3.0466702209441117,-2.6351326059681295,-1.5494520916160353,-1.9073297947843952,-1.3765071272720013,336.08376220242076,866.9528551356221,261.39256731195746,167.8977272741115,937.3784812656503,445.03043383295096
-1.4264342091923161,-0.18705504562186492,-2.024765773683666,0.9204003721731215,2.8028957448527256,-0.019755817172872447,546.9928924129752,120.61700684179722,16.162087004441883,112.3686662237424,995.1909778616171,1.825652568613233
2.5910161894960293,1.4942748714858132,1.028372619890301,-1.619266458320688,2.7948376800799526,-0.2647990145080992,547.6096087139938,459.10595427043256,90.07357999816412,112.3686662237424,995.1909778616171,1.825652568613233
1.2001072361939666,-1.0544423353167067,-1.602569252925093,0.39413772595698493,-1.8395806447128706,-1.4458998238068463,708.9221816563559,820.2555811680317,810.4355149567409,534.1964452267865,1151.412495652388,996.5402906744956
-1.9816761400828582,2.7584970927526813,-1.8491647012287709,-1.3674267733742433,2.501697398940946,0.1177549474789954,738.1877252280312,503.73397499545604,760.1207554739029,535.8768926792286,1149.98173110692,1000.8445685523207
-0.3804838854681054,-0.2563619385898668,-2.544669622393036,2.630055184954732,2.7587088033787506,-1.7678476919741395,926.0394541970186,246.5081355352886,85.36538226647639,174.6476313654371,887.6645945589253,494.21852449795597
-1.4820810716977149,-2.974794721428062,-0.9077528980393792,3.057814864180875,-2.692752381196617,1.6586281067781874,510.1423730954914,198.11197270428337,642.1315684688732,175.46801298059938,887.1885220050943,516.709641164965
0.07516142917508573,1.4015959354843384,0.9744610397810867,-1.7870646773630248,2.9309345852515616,2.772648227712981,994.3314930441145,756.7935120160998,563.3128238201514,508.3028411611554,1187.45880499025,830.566564709413
-1.1254804125095772,1.0163269995578128,-3.137854580631674,0.2553470276408034,-0.813824822846057,0.11921306719263569,252.54366338678759,750.1656529349726,733.505708330241,169.84324129226673,932.6115121259563,565.128273032607
-1.3338039389393095,-0.6606152055911712,-1.9625340972920873,0.24238372387175255,2.655554021045348,0.6682128629766302,413.25897744917404,672.9152725507982,38.78553369003601,112.3686662237424,995.1909778616171,1.825652568613233
-1.2777929505797851,1.439595959640986,1.7842566902959938,-0.02748611603078377,-2.662213658488634,-2.0681581153706494,830.0170418085033,459.2226146737431,795.2813104250117,535.8768926792286,1149.98173110692,1000.8445685523207
-2.045748226610507,1.4629189653226007,-1.997183847520623,-1.8156866096517001,-0.7590090771605724,-2.740643338798069,472.9238186382718,763.2274206824108,162.01870748875336,195.37581603121032,936.2307833832895,469.436118167299
-1.8062551955972141,-1.6115044152424374,2.2141911134202594,-0.800602147256146,-0.7417895755528741,-2.5753360775143634,797.338683650119,156.95173137966646,557.6138686463988,176.01849754705378,887.6659622049433,517.177634324813
-0.6029746158278546,2.461015708521451,2.637144845141923,2.7180625359714607,-0.7962285593425533,-0.0557374090431324,452.13730980002066,457.9459363048726,776.8328705040707,176.01849754705378,887.6659622049433,517.177634324813
2.12720523875148,-1.5554041993025358,1.4459895224131945,-1.0278186497060888,-0.4727702837497665,2.893329381936109,668.5607155060553,260.08775801698323,198.66422472167798,174.6476313654371,887.6645945589253,494.21852449795597
2.5561254437590284,-0.2748922316687348,-0.5911901459466757,-0.7181728762738051,1.7026548721002843,-2.707496258085435,12.60601646844217,160.17244607705183,122.98660910090197,136.78179912234378,888.8222006162391,488.96603016155
1.5021019514437155,3.0987114156095528,2.0672768662512926,-2.7646061689932164,1.321606753677166,-2.36854750919829,311.6469690929218,461.20260849196217,419.4375358858219,174.1567496764443,887.1872138219474,494.748753504494
-1.1177080488254352,-0.632071183413963,0.8069639190565359,-0.6806292480162108,1.7891126932415249,-0.6069094443977052,931.3847115508461,817.4211385809689,512.5863468614904,508.3028411611554,1187.45880499025,830.566564709413
0.9939457892121508,-1.3833390716277818,-0.8638961025625731,2.9222596713869553,2.6556344223388777,-1.1462667807050348,952.9264692013411,588.1275498618554,196.31673112769155,242.0128000857644,1043.167630439864,428.577532478993
-0.5298166985336161,-1.8417623208683203,0.11334242929182814,-2.507013629283076,-1.7231790517120749,-2.9960915149893896,916.9097754581423,458.4459598526056,300.856893276462,174.6476313654371,887.6645945589253,494.21852449795597
-1.5738246511276868,1.3402796525067053,1.2963534198153228,-2.8834064051407244,2.5494728088086003,-0.5860470686310819,705.7145324921855,882.4166527480503,49.41494736901031,112.3686662237424,995.1909778616171,1.825652568613233
0.4502161669454674,-1.3724617828607124,2.536685783533507,-2.872235082608199,0.2133006070995611,2.7550614871374792,685.440071517489,887.6957708160074,652.3161221706537,508.3028411611554,1187.45880499025,830.566564709413
2.1312384369854316,2.01195663303586,-2.98110854899514,1.8508778880572292,-1.206328549704517,-2.104650201321334,928.4143206834519,70.38147502542114,753.827886051647,176.01849754705378,887.6659622049433,517.177634324813
0.24957368686210035,2.8282739547234783,2.2898223033618255,1.2815361005013202,2.503035013177697,3.111223495501635,316.9039260654859,20.750809703447224,948.1410190396787,175.46801298059938,887.1885220050943,516.709641164965
1.62086303041945,-2.8661627852335076,-1.382327883140608,-2.145702185724879,-0.46083158757241627,0.7756972131455178,230.65147175555944,774.5649541808194,569.5254011599751,176.01849754705378,887.6659622049433,517.177634324813
-0.8087873994209769,1.283984186246661,-3.0706134571318513,-2.191688189694365,1.3328673730003144,1.9600020354918541,355.940131203771,609.2778492424392,328.1901470168068,174.6476313654371,887.6645945589253,494.21852449795597
-0.5333150316653863,0.21741212337978544,-0.6556859499095804,1.6407819330758517,-1.2450856885000312,-2.015673881653317,848.7527133573843,458.47934777989764,831.8696481657161,535.8768926792286,1149.98173110692,1000.8445685523207
2.6867914404298974,-0.38499834310615944,2.929410761973509,0.9235956124877376,2.471061317141136,-0.8701282550626486,127.03690803380286,261.28062884855785,560.2157887232876,143.3772098515795,888.6271136791881,524.6363522020561
-1.8662811512864685,1.0745855370256745,0.6608949995085118,-0.4607832709822839,-1.5497301536088852,-0.55760276361814,803.9126412231831,989.8391754065119,864.9391000846565,561.1011082605346,1175.6331118776502,999.5233521193206
-2.7575024730207103,1.2457019450224927,-1.1794975877496927,2.2275894756497276,1.718862455261144,-1.0283911189691475,952.9929920902244,254.83070385802353,8.175973129407765,174.6476313654371,887.6645945589253,494.21852449795597
1.739443457596379,2.3285206274041244,-1.8565965140278322,-3.120841916342572,2.3566597314947773,1.3253283063470844,658.9926051832051,187.1337907409335,916.1760226398351,176.01849754705378,887.6659622049433,517.177634324813
-0.04822123642151244,-2.9113056883917836,0.3508113091944032,-3.0646534717912735,0.458835558016796,-2.632618555762706,170.64213616089407,753.0588628381146,301.3671437932447,162.69089599687564,932.6043765815173,445.341613066401
-1.0317055932743417,2.7221254597274642,-1.4478356585611507,1.3606431233660166,-0.6810380752132801,0.9862154932906586,582.752095224776,746.3994576221974,950.9873770153208,535.8768926792286,1149.98173110692,1000.8445685523207
-1.3817815484196476,-0.051276162796098035,3.045677659589681,-1.2440522738057516,2.2103879866710265,-0.5235990745053667,228.57250627540958,457.7014127849759,685.2494101201798,175.46801298059938,887.1885220050943,516.709641164965
-0.8535278171641889,-0.5938371637384599,-2.6261800633278383,0.9455372060479617,-2.5900587797966117,-2.780472873154464,484.1424364554912,910.2246031052754,305.5517543001558,242.0128000857644,1043.167630439864,428.577532478993
-0.12735880306494174,0.6150475786344067,-2.2552401531045505,-1.7630072972089177,-0.3358890355126727,-0.1658236097483723,773.679615865361,912.2953722438034,361.52853814755383,242.0128000857644,1043.167630439864,428.577532478993
2.4233719913207317,-0.5384224753724589,1.9857669673367182,2.180352957637573,2.968626386464935,2.0114868034776494,113.52978544062708,205.907644687218,307.78188306360335,142.7652792630585,888.5569904815491,488.60877816347397
2.929350874403502,2.661256087063818,2.9483751444889394,1.7535262614960674,1.5231433569051704,1.317296017308541,11.165992611129827,583.2720995727069,91.30502595747502,-66.75175444812159,997.9922570783631,148.762808295422
-2.919689639715921,2.7435331892064454,-1.7999943605529192,-1.7222014040500204,0.6541911267508054,2.1387188681090823,150.77263372062743,585.4404424048714,318.2325246468795,142.7652792630585,888.5569904815491,488.60877816347397
2.997007535130833,-1.1447299061534726,-1.552366259554831,-0.1303540682858948,0.844784685776514,-0.7520689389540234,937.520515456416,101.02554517865225,441.6800998033563,174.6476313654371,887.6645945589253,494.21852449795597
0.6263041614253226,1.47171315620528,2.3613307015196767,1.509837536829206,1.1095298944831091,-1.0543232663847686,948.9438044022074,547.7302811352176,402.8007009622061,195.37581603121032,936.2307833832895,469.436118167299
-0.5226493067801425,2.0688318147517606,-2.5811254252090654,0.5792330144454674,-3.0342661932423467,2.7800207374935004,304.4157091915135,674.5804669958856,700.9146589744145,176.01849754705378,887.6659622049433,517.177634324813
-0.864988985471518,-3.080191437082573,2.5404715767089145,2.705489243327368,3.053040995521455,0.7249688746903149,810.064537722782,782.6907570981227,432.46659018545375,242.0128000857644,1043.167630439864,428.577532478993
0.4797211936348176,2.785526917306666,-0.8981792456085453,1.6416326455599748,-2.6721033953655087,0.18810813034454066,386.2337852279584,72.39123703235417,822.2466707538091,175.46801298059938,887.1885220050943,516.709641164965
-1.6928232019087557,3.06831873920797,0.5839114197013644,0.10754720889507619,0.7054632416651825,-1.9214706144390847,851.6636074862441,169.32324802822586,522.5624110862881,176.01849754705378,887.6659622049433,517.177634324813
-2.4852922790312593,-0.9283519961919002,-1.6830695132456879,-2.722467770075249,-2.0555570585012726,1.8414415117628824,268.7333527290716,681.6225272437731,98.37135031968425,112.3686662237424,995.1909778616171,1.825652568613233
-0.056023654824414404,-1.6348895345230396,-2.8277964191795277,-1.6766948765421579,-1.3723071491347218,-1.5252531541259229,938.3135239157881,497.19130641109564,464.0546484881417,176.01849754705378,887.6659622049433,517.177634324813
1.3990210995682313,-2.7102708923654686,2.6203066440434135,-1.4756324315114357,2.9021304443477156,-2.605847038088675,532.0901002082267,941.6980635519961,643.8559603359564,508.3028411611554,1187.45880499025,830.566564709413
-1.8471796315447928,2.5143076648200013,0.6165296392510276,2.728999672672299,0.8079150705363753,2.5737870090714505,598.9430245440503,810.5250943807495,99.41793277567345,112.3686662237424,995.1909778616171,1.825652568613233
-2.0063054662901076,0.4193679662898062,-0.6879446044537394,2.794439709855861,-1.895477703529083,-2.3049916495348906,756.018169410324,445.46276089480676,937.9753250892903,535.8768926792286,1149.98173110692,1000.8445685523207
-2.247457944834382,2.0634126535960773,-2.996941586744262,0.4670371938462057,-0.9109539480808246,1.8463418200947501,696.1085650058055,784.0173867892526,841.7366597005313,535.8768926792286,1149.98173110692,1000.8445685523207
-2.0375543719342923,2.9869938896166577,1.9063526926151066,-0.9138564956813626,2.747825505700039,-2.3326717273813777,665.9085652274905,386.38361455320893,432.03481808609354,174.6476313654371,887.6645945589253,494.21852449795597
2.654581688792275,-0.17175637435655,0.5658921827688976,-2.7578337301182447,0.777197374556196,-1.398891941614245,161.7858488231738,698.0984992600944,679.4016367051772,143.3772098515795,888.6271136791881,524.6363522020561
1.5610653741129497,-3.053443219980857,-0.22467516530986575,-1.7658292035547107,-1.3767554038574172,-0.3665810181339535,829.659279274782,46.66781204870851,99.07212998740323,174.6476313654371,887.6645945589253,494.21852449795597
0.7052642933169726,0.3526332227313653,2.1976071154340424,-1.2504349181592944,-3.0771067181201297,2.1200678692498185,91.71469624365814,691.2546111784313,750.7314904473093,139.07843248961967,889.3194912363831,525.393877285195
0.7195035952923758,-2.5059668223243463,0.2745070959182212,3.0503377712065918,-1.2203800160811713,-2.8685733270765885,288.5035922122249,862.1894468416556,651.9931579839588,175.05007256950262,937.3856168100903,564.817093799157
2.979409733412586,2.68885628710565,2.7298395117392236,-2.873550063337574,-1.6626090224527235,0.21479622000835885,446.6251010580569,338.44503017410045,251.69709280286034,174.6476313654371,887.6645945589253,494.21852449795597
0.5909934050514813,-0.264635250027911,1.9534267725875196,-0.243353922123124,2.710502559727437,0.4892137317499925,153.41850504839726,353.5307515535555,558.1009645370964,175.46801298059938,887.1885220050943,516.709641164965
-1.8734400505029292,-1.5122935535490523,3.0693310275108736,2.5571614197170076,2.3635060422303678,-2.0597312692474983,858.9423109669526,91.71490570331864,549.9277124761021,176.01849754705378,887.6659622049433,517.177634324813
-0.9988199094138466,-2.7888007691434757,-2.9143696190613584,0.39114847470305714,-3.01734038463282,-0.3756421833361263,508.57154753867337,396.53991800332955,277.4042295264654,174.6476313654371,887.6645945589253,494.21852449795597
-0.7580298097415095,2.544030321421613,1.9362710305572426,-2.5881607303631364,1.5892152533948112,-1.6765921116130433,684.0327111553311,648.4154195292065,605.9083425436893,199.42881169859862,936.2348268584715,537.315225481482
-0.058666008835509764,1.4102070166654803,-2.984497915664708,2.9023266969889017,-2.5922506635054035,2.8882343385351046,626.4963164951392,49.90118700429602,756.8937237895791,175.46801298059938,887.1885220050943,516.709641164965
0.5879590269201507,-1.7681190379460316,-1.1474709701733998,1.4464664732575443,0.7908724083489451,-2.919299724247252,382.5064182934501,84.18656896718613,965.7640270389602,175.46801298059938,887.1885220050943,516.709641164965
0.5968263067206538,-2.1565528353947165,0.17805141145602876,-0.7994950821364788,0.37773328317175814,2.475065947710206,352.0614352827984,285.42445871502366,319.9041566449855,174.1567496764443,887.1872138219474,494.748753504494
-2.1087945375398798,-3.0270860953877174,-2.742164494757716,-0.9553656610340595,-0.5885982806401291,-0.6383700255383271,591.5358436358193,669.9891809493213,337.5636084641977,195.37581603121032,936.2307833832895,469.436118167299
1.0839880518056244,-2.1642408199260537,-3.1123440825598543,2.0816238664876163,-1.0008330871721847,-0.6705593711635172,74.9331344488634,373.3573256512851,823.4970798261255,138.92750271096108,888.8243412795712,524.902028151412
2.7625943264609427,-1.4432136867547731,0.9033940948326196,3.027591203469634,-1.894908459411415,1.0124287488098274,455.1969214592355,172.56690131905484,576.5608937516275,175.46801298059938,887.1885220050943,516.709641164965
0.47866260019190454,0.7137587745440466,-1.2297437697215825,-2.325607615543598,0.47123666979561074,3.061698194175743,365.6181931806706,782.6779571135072,520.1563771316406,176.01849754705378,887.6659622049433,517.177634324813
-2.2711185369643627,1.2817722312863165,-1.3300102494551571,0.5572496848582658,-0.6341596033425847,1.3227282110838345,629.3484805096102,477.8048602101773,675.3149764396932,176.01849754705378,887.6659622049433,517.177634324813
0.5392639878438685,0.18931720607319402,-0.7891046857068025,1.7572613191072257,2.180684623725087,-2.762212162714249,241.68894294981712,49.414756679020286,918.6756857384356,175.46801298059938,887.1885220050943,516.709641164965
0.08357959006349125,2.5034912898653516,0.2851304805101411,-3.1379570177578056,2.6690227994516427,-2.300196653749824,910.860528774796,754.0141237192291,450.90702701199615,508.3028411611554,1187.45880499025,830.566564709413
1.2695096834934638,1.770930776668763,-1.3732171628607783,0.43228171185447106,2.5186136737766924,1.0693107204054417,459.615038125858,497.9744152334009,470.96922995317624,174.1567496764443,887.1872138219474,494.748753504494
-0.8830870068850993,0.7632265781585725,-1.4950671712903285,0.07341533376264486,1.6797296768127685,1.9314195885048173,276.3179763299446,929.3820446438564,755.3107712798649,170.3618535062149,937.6069225700173,570.105914629479
0.04418154607201652,2.728821891081229,-1.4137473194395316,-2.176820600292821,-1.2072222376364796,-0.9842419476875399,967.1006850640413,215.48957944886305,895.5902277552692,568.1946326385457,1135.9042573625852,1136.48307128349
2.7967027282274746,0.895447462964464,-2.5819109359825863,0.12038843768724083,1.8180847317967297,-1.1309562040013907,912.9536521797831,449.26048131619325,263.42470885176573,174.6476313654371,887.6645945589253,494.21852449795597
-0.5289909632849779,1.7001680864901427,-0.17287224063267148,-1.49392332992901,0.1504560011654461,-1.815014585118895,106.06169802654564,767.0770593447385,823.1755347562289,102.54907857811389,940.6126374298359,574.1547706076769
3.115133909642969,3.124178181333999,-1.9846412255204087,1.9312110930485167,1.9823056637580851,0.0727785343717553,648.0482074532346,701.0489957563263,592.349261923126,199.42881169859862,936.2348268584715,537.315225481482
-9.575114659554629e-05,1.9936294635302643,0.3147400731286232,2.5395850724866023,1.7639511736398266,-0.5804222580691416,609.128896782782,789.0464165786749,219.77687117783907,242.0128000857644,1043.167630439864,428.577532478993
1.150258825469244,-0.5463376085886318,-2.82647045644931,-2.6978724625672768,0.7823354357628696,-0.15244030175685275,419.8339808515648,638.050626708222,65.22140131128751,112.3686662237424,995.1909778616171,1.825652568613233
2.4654346640404112,-3.0546785651692328,-0.2807437535435877,0.7848202971760632,0.3210440530957812,2.3047359910202196,463.28932616027055,568.6248853676261,675.5932600101582,176.01849754705378,887.6659622049433,517.177634324813
-0.018258804952741237,-0.7066661334344095,0.8241553632366276,-2.3625802400430307,-0.5732343964839544,-0.4442656894655146,695.5498881998774,280.1026074059928,652.9317407489813,176.01849754705378,887.6659622049433,517.177634324813
1.6229386834830253,-2.43124523683539,-1.3799736151238091,-2.7864071188219284,3.0529894383874847,1.8616218714192687,871.1335075106329,427.78316395081663,198.43456844912154,174.6476313654371,887.6645945589253,494.21852449795597
-0.5608415610556641,1.0132987549568293,1.596516236543196,-0.2982987260330896,0.7929940369084938,2.1200011453868983,993.550235560422,860.3757238900544,983.8700648703408,593.9279820827746,1159.7724193115464,1129.1248280893901
3.002248728808543,1.909944929951985,-2.2821936276845087,0.8079273747542572,0.30632868062522123,0.6292728693945118,728.3487767711548,185.18489533734262,834.3484978498161,176.01849754705378,887.6659622049433,517.177634324813
2.6504951679525126,1.2344948740087824,-1.0024162824918128,1.5189792457264915,-0.9347441463676662,1.4514100909075198,554.4571729301807,212.71002016975027,917.97558494243,176.01849754705378,887.6659622049433,517.177634324813
-2.2787237556160944,-0.3041870704368277,-1.4235534658812394,2.7790881112797052,0.8946803687427867,-0.23426770115568996,957.7300791165623,52.09722784651982,170.73275625125018,174.6476313654371,887.6645945589253,494.21852449795597
-0.11395044795081244,0.2155573023239401,-0.3859822317827195,-1.7278198367386322,2.4301933681675028,-1.9895282481081684,846.0944045253146,140.59005000351632,310.5528110266488,174.6476313654371,887.6645945589253,494.21852449795597
1.0341694802388552,-2.648868097754425,-2.845625101073817,-1.406631568903112,2.884245307038566,1.9755029597674758,492.3515045188919,464.3991648894029,283.3402837827661,174.6476313654371,887.6645945589253,494.21852449795597
1.956897483191156,-1.1829095964533973,2.2020849686064015,-0.7428401653439916,-2.378632141088982,0.5058822546695656,903.4167869785841,324.547688602962,863.1260679966665,535.8768926792286,1149.98173110692,1000.8445685523207
-0.5826730615625197,1.8147328403056502,0.7814224665681304,-1.3771085630699111,-0.7010423119575049,1.0647879300248775,702.5432890338785,207.43309022069002,475.288920835686,175.46801298059938,887.1885220050943,516.709641164965
1.6094905108638367,-0.12573943259648646,-3.0463799672336784,2.4541773100769735,2.70744765330258,2.8996638331276863,664.7349948255467,481.6161354890888,166.84552201385395,174.6476313654371,887.6645945589253,494.21852449795597
-2.0021197810342706,0.4444440128287934,1.9156904623365678,-2.0724750729544485,-1.7694628579495546,-0.9188503291126793,702.9043816037479,954.1409512976634,564.9005205034109,508.3028411611554,1187.45880499025,830.566564709413
0.7440499059650412,-0.9138506023378459,-2.075564469341237,-0.5854854591976273,2.037762522711283,-0.19294749155931656,470.56595858967586,990.8262187767953,284.3408074994449,242.0128000857644,1043.167630439864,428.577532478993
2.614886419441042,-2.225911642310161,-1.8717344369571045,1.4227156259911178,1.7278218074639264,2.515057742359555,545.7986346557672,735.901729525095,640.638757104082,199.42881169859862,936.2348268584715,537.315225481482
-0.7050988144481658,-1.3694358143309058,-0.4697527221107447,-2.866763303425845,-1.091204220464106,-1.4998601134655247,390.1746428278853,603.7552457151459,111.3206852787465,112.3686662237424,995.1909778616171,1.825652568613233
1.8428013377191466,-2.9075425284757443,2.453213256397193,-2.0987073462592134,-0.8229772731346028,-2.2233284718245816,339.2101923689896,240.95063865786636,988.3321724377842,176.01849754705378,887.6659622049433,517.177634324813
-3.01385497518743,-0.40287986167362977,0.24212100726139685,2.3665088863195782,-1.325432353640122,-2.1284698823562405,89.73333598881872,179.76584204269187,8.430009724527121,112.3686662237424,995.1909778616171,1.825652568613233
0.5102072756884684,-1.3120043426689405,0.1147307938690556,-2.239725092063651,-2.4266598377145367,0.5875226398941824,720.4393545343173,968.0332386494485,368.4441972392488,242.0128000857644,1043.167630439864,428.577532478993
-1.9822508490937039,-0.3058079300890699,-2.939684562893995,-2.6360567980856806,0.3534846881718412,0.9750795504485783,19.20903056751644,400.40211599954154,412.830582704509,136.78179912234378,888.8222006162391,488.96603016155
0.3939661849144662,0.2201446425852902,-1.8500387385114154,-0.9660189968358153,-0.11825238114648684,0.18599108720061563,960.5891549150278,200.37188306482102,572.6200217945142,176.01849754705378,887.6659622049433,517.177634324813
-3.0452553921167542,0.21775543133323305,-3.0942438554033846,3.023158897485347,-2.885204664206237,-2.6235913405712132,278.9280695489912,212.89971409396003,952.8362609183488,175.46801298059938,887.1885220050943,516.709641164965
-0.9372127691901269,-0.38196657035130155,-2.972668362819299,-1.2906861915950307,-0.1763373712647227,-0.7701939120054733,513.3412876318839,809.8768169145769,596.0858676276143,199.42881169859862,936.2348268584715,537.315225481482
-1.5118877832554125,-1.7575686594374316,-1.6103511889186763,0.15040685499603468,-0.47728255675007825,-1.4556272400392254,108.03677316592908,307.49383472055194,414.1367818882389,136.78179912234378,888.8222006162391,488.96603016155
-0.307663051482602,-1.8311539321999024,1.884473087285862,-2.4747024595104037,-2.622899877856502,-0.939869393529027,84.76137064411371,239.28694886422775,505.0031044713781,136.78179912234378,888.8222006162391,488.96603016155
-2.079025008801442,1.119063169834722,2.8147180217636665,0.4108344296289479,1.7104274598990976,-0.12027769500495067,736.2061467341747,946.6359035733018,360.3782224753613,242.0128000857644,1043.167630439864,428.577532478993
-2.2746015154180714,2.4302208904552396,-2.878513562980717,-2.6289969128345927,-1.0903760549735306,3.0003155863645246,279.8994241531827,961.385527380695,343.1238024389135,242.0128000857644,1043.167630439864,428.577532478993
-0.6985278817067693,1.8117326014880613,2.3819190691227137,1.8782191392093734,2.287000095721565,1.5050056829464165,167.1334061049572,306.8449840136657,768.8212552352288,143.3772098515795,888.6271136791881,524.6363522020561
1.339959083172559,-2.2898780238438867,-2.556272670191607,0.8098326073403923,2.4705747057861567,-2.974231441251798,818.5640480465985,431.2589714434152,21.78619602913079,112.3686662237424,995.1909778616171,1.825652568613233
2.945777711583151,0.8831592440191818,0.4892797188023894,0.3315396095746648,-2.284765505485109,2.5972919231708076,360.73263088985783,594.6817018366071,872.0387032362581,169.84324129226673,932.6115121259563,565.128273032607
2.0012339367245655,0.8979181530772911,-2.2605153130311506,-2.114362772050214,1.9785384342450714,-2.167456381289055,670.6892276524172,190.17133384646957,70.46897178424594,174.6476313654371,887.6645945589253,494.21852449795597
0.5536529157072545,-0.8648952588633803,-2.486571342061384,2.166659846076805,1.5423147057454143,-3.089308616475324,22.18018604912664,223.45718091993317,607.2667373815827,138.92750271096108,888.8243412795712,524.902028151412
-2.835559248966891,3.105424498208378,-3.1173919584051237,-2.8956422113175666,1.9454916627136836,-1.4035711906283292,139.68474517970276,732.1223510918061,53.25980337917069,112.3686662237424,995.1909778616171,1.825652568613233
-1.4375719378278664,2.554915935032674,3.13705425580448,-0.15649695024295607,-1.5020801168615239,-1.4588785470089176,333.7511377440749,764.0009900429649,865.1406355092805,170.3618535062149,937.6069225700173,570.105914629479
0.4813911775275539,-1.4949952192405234,2.1516842079706615,0.8794312776813138,0.8655177889265264,-1.23320602451107,133.83244736991983,516.2436630255229,584.6061877502581,143.3772098515795,888.6271136791881,524.6363522020561
-3.018316747731524,2.276742809299508,0.0068667564556070815,-1.4603464144092628,1.253191264371413,-1.195280935225552,30.05591586377887,69.54692061672252,806.2667563142005,138.92750271096108,888.8243412795712,524.902028151412
-1.1680255233265235,3.0686266182191515,-3.0183150010126454,1.6877768203251904,-0.0005043530964949916,-0.9679601584002384,950.3461929521978,427.7255491254541,647.6875984267074,508.3028411611554,1187.45880499025,830.566564709413
0.4014955437343932,2.43695335719537,-1.4953956262761805,-3.0486091867484304,2.845542273306159,1.3417065603832636,666.7593907401382,501.41315872803136,103.17249539898066,174.6476313654371,887.6645945589253,494.21852449795597
0.5797427433151623,1.7391780151319765,2.5589096435914316,1.5844603833848332,2.2542073491676256,-0.21171483538329072,170.53319595395712,440.97025862364245,339.130918922752,174.1567496764443,887.1872138219474,494.748753504494
2.7094609103217957,-1.4130221597942336,2.7474642202157638,2.4452072193621834,-3.0516757626229074,-2.5911820652381365,863.7617566582469,324.29671745064036,880.1467620386143,535.8768926792286,1149.98173110692,1000.8445685523207
1.0961914327285127,-0.31308763607093804,-1.4947976429339018,1.214200591024042,0.40837495085343267,-1.9037682349232574,774.3923292485928,868.3935920992199,440.4093876290982,242.0128000857644,1043.167630439864,428.577532478993
-1.1585517577974451,1.164824291829956,-0.43257022106919285,2.8773191047079294,-0.2041091401681876,0.7851572047796549,88.22548748333392,293.90374320283155,502.1130115910716,136.78179912234378,888.8222006162391,488.96603016155
2.00320678513976,-0.08461311934725435,0.9920580161990618,2.0378460317790434,-0.13927318076781914,2.2188679206182265,326.12254439849875,249.25461279488104,592.7875335340894,175.46801298059938,887.1885220050943,516.709641164965
1.9174213643334452,-2.250662469627957,-1.6815890947710654,-1.895250129886834,2.7275203132412615,1.8599570616943426,631.7004643737664,374.3323020955075,255.97667475003982,174.6476313654371,887.6645945589253,494.21852449795597
-0.9845982565301465,0.8545146089772748,-1.4858364157682213,1.8703490953188595,1.2512391591913037,2.0182223266254473,33.65881633215962,556.6850833209047,218.62003037532452,136.78179912234378,888.8222006162391,488.96603016155
2.1737675366791294,-0.14269844468798398,0.7542614705392223,-2.9618967529063913,-0.032986778804545924,1.9905231028331087,290.0501256508186,694.2349219389714,861.5734014414918,170.3618535062149,937.6069225700173,570.105914629479
-2.707332451021684,1.1676285658215386,0.6268068040126131,-2.7260735851418256,2.010425158289757,2.741689388004267,527.129430579329,123.35116929359668,341.4634243690855,174.1567496764443,887.1872138219474,494.748753504494
0.8177463960694555,-2.040762782613642,-2.2856354279273092,2.869948647769358,2.41224940795803,2.307473619481545,667.6745141626797,164.7013007306146,985.2064037803483,568.1946326385457,1135.9042573625852,1136.48307128349
2.5595835338787243,1.0238355896738858,-1.0129051527902315,0.7804717360304285,-0.17541905963839044,-2.091323518674641,834.5083133138866,838.634322496069,592.0312365223566,508.3028411611554,1187.45880499025,830.566564709413
-0.0785186113930263,-0.3708168014876363,0.5860382775329116,1.6672903090878677,2.2700486324347233,0.19769775189986216,617.733131177836,451.581141180737,431.3951253328652,174.6476313654371,887.6645945589253,494.21852449795597
2.579092216347088,0.4996187779030108,2.795541338442572,-1.3309813009882605,1.4325463188551009,-0.45345390283559306,202.68066635304672,440.0596836460164,556.4239780668119,175.46801298059938,887.1885220050943,516.709641164965
-0.8299030636259528,-2.933529932477169,-0.87426361152305,2.573050145583114,-2.1210538070709166,2.857308488308436,382.55628025839127,416.01823345438413,769.6470111413472,176.01849754705378,887.6659622049433,517.177634324813
0.5572198693496038,-2.254568895099048,1.266006734917223,-2.0298002587694146,-0.33753521949710397,0.6084232752122025,70.66265856870547,830.8582733451246,575.1394982884874,138.92750271096108,888.8243412795712,524.902028151412
2.9732506125207907,2.1117112934686304,2.2900420098967116,-0.46091990524622206,-3.1111440526243466,2.827060771787708,358.83766305215613,200.71695413078072,126.67657855554005,174.1567496764443,887.1872138219474,494.748753504494
-2.4366181216842944,-3.010460039332097,-0.12044103473111667,0.7418681549796373,-2.0169594343062487,-2.7536107383344874,506.2482138372442,684.0680484992155,629.7172910362453,176.01849754705378,887.6659622049433,517.177634324813
-0.14813736227671725,-2.1827691284641864,1.5999235151969415,3.0106766974698465,1.7971119764972192,0.13755021687224778,725.5074666935873,711.6524245573638,349.0278496367033,195.37581603121032,936.2307833832895,469.436118167299
0.15311803224380016,-2.8257312627694544,1.8687789743934449,1.1051229101819269,1.0957088477437393,3.057375687349536,749.6283795544803,664.2427688847805,355.32603316272247,195.37581603121032,936.2307833832895,469.436118167299
2.194791760752933,0.3495265097595457,1.8708444629689014,1.4132626715020509,0.7888515673459842,1.7431660331295884,57.23551725560927,713.1939055457595,56.84040091464249,112.3686662237424,995.1909778616171,1.825652568613233
-0.8584757446162778,1.9016480345781934,1.8509301772063207,1.0995185140318684,2.600898361924221,-2.4770144842979263,856.8377165983392,76.40301460643373,926.4200712652514,568.1946326385457,1135.9042573625852,1136.48307128349
-1.7921477921350557,2.154916365053503,0.07369864144564975,-2.3903231806025946,1.3183600710607486,2.8156262358852358,996.9346115389709,871.5826137144643,943.2956182027087,593.9279820827746,1159.7724193115464,1129.1248280893901
0.5129844590745889,0.26522295197928214,-0.24218383359033657,-2.3652923122602365,-2.360403672048852,-0.9885522158978182,660.3950585749752,515.0497400996111,338.3433212887194,174.6476313654371,887.6645945589253,494.21852449795597
2.5018822813187755,-0.7127834997815214,1.542554606407382,2.699072017616456,2.4345721934441498,-1.8314539347099437,440.45132771079795,929.120874903972,126.23701030974243,112.3686662237424,995.1909778616171,1.825652568613233
-1.728973691005618,2.0226403945177687,2.4082247237000827,2.821086231588228,-0.41105912905284026,1.3755972587027099,299.4777740799207,422.19374108167915,30.716244112764524,112.3686662237424,995.1909778616171,1.825652568613233
2.4996750762963824,2.489987109050859,1.8712226248524892,-1.6833954413938295,1.5868476622735548,-2.3060623295259672,950.7137596677181,558.2585139481861,380.61277492578637,195.37581603121032,936.2307833832895,469.436118167299
0.37393703516801713,-2.4955150209931323,-0.19969674475273846,-0.22631398751670373,-1.192897210757328,-0.32465833453256554,665.3146977567667,596.4434515462945,251.88217226911536,195.37581603121032,936.2307833832895,469.436118167299
-2.3443435849777963,2.520663546243024,1.1245382749039203,-1.539515677607981,0.8388031491104111,-0.6522900333565658,385.4734506246102,799.5332302253922,923.1946709374838,531.9584593414829,1150.8912897803186,998.1894612587901
-2.6753574253312506,-1.0134672374924478,-2.1475701263609523,2.686868185013749,-1.1103814541379924,-2.5692975574277637,874.3748999156631,331.8945838665932,333.595964647191,174.6476313654371,887.6645945589253,494.21852449795597
-0.008234398540170051,0.9749504310939558,-3.13742789419227,1.075008904337433,1.9282917754919096,-0.7109303252916628,309.37582249721083,544.1591348086199,285.4716116723045,174.6476313654371,887.6645945589253,494.21852449795597
2.742012359492314,-1.0294811499006453,2.573652903742765,-0.700034188421931,0.4631641724960014,-1.4184642897964674,189.44151301088885,731.1442077539167,61.129016515102386,112.3686662237424,995.1909778616171,1.825652568613233
-2.4833008774994183,-2.903623036196788,-0.5145469586025833,-1.6508876594623971,0.8025507460019918,-0.4023822575926572,298.5194166592244,945.5096168935621,383.98492750942626,237.7979980277264,1038.357007240096,431.593050351832
-1.3311800753100163,2.0313738566432464,3.0349811898932586,-2.035357330644575,0.8033441173898885,-0.8179770036391671,692.7481040917768,627.8991249222728,811.4184208179742,535.8768926792286,1149.98173110692,1000.8445685523207
3.04712815829944,3.0329671993270786,1.0340341114753038,0.5906629777850134,0.5068038241659321,-2.3087950137081688,271.5711105515095,168.4885177815104,615.8488914486057,175.46801298059938,887.1885220050943,516.709641164965
1.2784931885764221,0.5797818292412753,0.47226355888533567,-0.6140438762373952,2.3512862721662957,0.33173971993730467,487.5073005466033,844.2507674866993,110.08778416268494,112.3686662237424,995.1909778616171,1.825652568613233
1.2486653468865851,2.3279735145342757,1.3838893080541776,-2.572381513937472,0.9833300124875208,-1.8943661843191377,646.8918622639367,575.3838066405988,21.68055399000879,112.3686662237424,995.1909778616171,1.825652568613233
2.805931642921699,2.618261191686673,-2.2675028783671127,-1.8943034285113076,-2.8077319515830643,2.5448596604240246,305.4058157295385,49.86784009743883,535.34713687727,175.46801298059938,887.1885220050943,516.709641164965
2.917708688329494,0.09174775718197736,-0.47322636134176976,0.3008570044999539,-1.4414487064024053,0.3340602023581254,955.6345838218168,150.9975747786173,911.8215186386068,568.1946326385457,1135.9042573625852,1136.48307128349
1.0057247512680387,2.197124816705516,1.6886120683349501,2.149516684691619,-1.3884234812378424,1.0213913054196047,459.50389212272523,770.0939900194754,632.3735433909332,199.42881169859862,936.2348268584715,537.315225481482
-2.0212250345369274,-1.0231957297753165,-0.1631644472632967,-0.2077728389679141,2.092528647695417,-1.8177925649760616,236.64900080713647,938.2700329585558,104.0591190474649,112.3686662237424,995.1909778616171,1.825652568613233
-2.2188345118628563,2.848590648393773,-2.92165583897271,-0.32078770424317415,-2.0981543917854255,1.0543414281968682,589.6920434797339,437.457908665701,586.0878238572993,176.01849754705378,887.6659622049433,517.177634324813
-1.8403064340818518,0.13364599572532754,2.7121119842684855,0.3159157161330812,-0.0314647334618563,0.11279723828517474,513.0620601837305,469.2250693952361,468.5447431266886,174.1567496764443,887.1872138219474,494.748753504494
-1.4768317984712787,2.2952444030794164,-1.5589585701290087,-1.84980065309488,-2.3265558096627244,-2.067653251233382,974.6484678948369,957.9008208257662,956.5188894079484,593.9279820827746,1159.7724193115464,1129.1248280893901
0.4720787068612422,1.5880384160318508,-0.7840389594046795,-1.425770316643713,0.3166071868982647,0.00939472240880379,2.7409291135421787,465.23617171511046,113.3703606411981,-66.75175444812159,997.9922570783631,148.762808295422
2.687443306921536,-1.7232316528392662,-2.5398914515145856,1.4045587921803682,-1.4122374219601919,0.38372498240082686,536.4133133305384,638.4651518976389,525.9553270165767,176.01849754705378,887.6659622049433,517.177634324813
-0.08462177156418926,-0.6243249011681988,-1.0519214085467121,0.8199879366832601,0.07482013621793637,-0.7878408612496797,908.8429660396832,973.2329669027979,21.56219437505491,172.4573259184734,1180.683756129731,173.538442384827
-1.5053273903589979,1.9687511515247813,-1.6967111909133499,-0.21776304312150652,-0.8674150731617867,-2.334115422832891,669.2234181318988,175.6742091852601,48.86211496450355,174.6476313654371,887.6645945589253,494.21852449795597
-2.886730355434766,-0.4162853953921175,1.7439083737353007,-0.3398628358490381,-2.9033634328641087,-3.113278139612508,712.875062673487,21.436177688235137,802.5839540664831,176.01849754705378,887.6659622049433,517.177634324813
1.3748619572395846,0.10981029721820468,-2.7443950769211236,1.3984442648080346,-0.5719688764900908,-0.9652682308801932,141.20109800524082,580.5342711786416,924.3683084287192,102.03046636416582,935.6172269857759,569.177129010804
-1.5724642207995712,-1.4140772533775667,-1.112006163083759,1.5189241542616188,-2.0910699262816106,1.4903498503748454,915.1873845130226,69.57061752179428,622.8559376504023,176.01849754705378,887.6659622049433,517.177634324813
1.9049526202632858,-1.903966745758106,-1.349814978874758,0.3666647850826359,1.885936620550397,1.6331831962782442,412.3828846764589,837.7022079230509,299.7121512671546,195.37581603121032,936.2307833832895,469.436118167299
-0.11973009498755083,-1.2578558316153778,2.720023702906823,1.4740848370963073,-0.060566669907256454,-0.28448936829478155,405.0973965201756,606.3985022632083,560.7512740641519,176.01849754705378,887.6659622049433,517.177634324813
-2.0766297579486466,-2.283511865573484,1.9873481056391373,2.3072164260443326,-0.23864904327796,2.8874387771453005,530.7994998544953,101.60905354210581,132.06039334704656,174.1567496764443,887.1872138219474,494.748753504494
3.097348979087445,0.33696424727676133,1.6644548391948657,0.5470553281888924,2.8279025618192595,-0.32826844203914307,113.62456024344725,988.7738223664298,579.436217465847,102.54907857811389,940.6126374298359,574.1547706076769
-0.7424582192980922,1.2549589119355735,2.0881462961422494,2.1265048355447984,0.01000682617760651,1.9608493126133215,958.7937924736251,558.4150934082145,627.9222209997107,508.3028411611554,1187.45880499025,830.566564709413
-1.165644009039519,-0.0002988264288417142,-0.7831907745606896,1.1610167639738727,-1.0397077805008248,1.762921070661565,973.2050651848672,565.5948784913667,557.4402735935316,508.3028411611554,1187.45880499025,830.566564709413
2.029145461013994,-2.8672739592315564,2.6459969770829517,0.6361362253893046,-0.19170441778621106,1.2287630103143004,982.6177215591727,206.79558727847268,147.58250647722704,174.6476313654371,887.6645945589253,494.21852449795597
3.0689567380170537,-3.0799742736524554,-2.874980632644496,0.8916187044203792,-1.990696885157497,-3.104533782977834,290.58752534820366,928.7495623744157,218.47653567655257,242.0128000857644,1043.167630439864,428.577532478993
-0.8899695695152015,2.533806760578786,0.1624137858348882,-0.6051132703967239,2.2060975960513964,-0.32650743194331344,519.5770552384175,413.2442742200457,426.40463231386803,174.1567496764443,887.1872138219474,494.748753504494
-1.6296521135127213,-0.9928749175517599,-0.8906767486551117,-2.609085073236983,2.0393355411073744,1.0731283019662667,279.0676026486532,641.9363485973355,629.3977138080353,175.46801298059938,887.1885220050943,516.709641164965
-2.0373224080193815,2.2412678297942374,-0.9986734454402413,0.8994078649021944,-1.2178627115073342,-0.7425316953599013,334.46497608105153,721.413240848359,733.4890308113727,176.01849754705378,887.6659622049433,517.177634324813
-1.929332329074227,0.8112912482618837,-0.3518989428542816,0.617172181830985,2.31507772689905,1.2333263370499097,257.29872492533366,83.24671559232367,340.69616020713045,174.1567496764443,887.1872138219474,494.748753504494
1.06699945140595,-2.470819118582361,-1.4359088733733247,-1.7833282319306838,-0.7295123434513116,-3.0021957875174103,875.1787881434803,612.6948298526243,54.04691350807933,242.0128000857644,1043.167630439864,428.577532478993
0.2883739660855218,-0.4785338431427246,1.8501228390357927,-1.5987909086461443,-2.5729226781821684,-2.676176518209743,564.9676677284065,101.99644694412524,579.6668766625291,175.46801298059938,887.1885220050943,516.709641164965
1.4958364434333307,1.0069690553501358,-2.542303974287693,-1.294410073523953,-1.18041142545502,0.948917075047425,856.2355335055593,988.2972732765343,382.84319287525017,508.3028411611554,1187.45880499025,830.566564709413
-0.5775619071359612,-0.9896086332376233,-2.2391708566320916,-0.7232344256749652,-2.9703722032664,0.08385636989122425,721.6144992320462,417.26069916694763,146.55783005277922,174.6476313654371,887.6645945589253,494.21852449795597
0.9619002266236283,2.5639397332308826,-1.8271573166188044,-0.9933984928519544,-0.7708879645299902,-2.5501584531554644,299.5541995350822,624.6253286930342,808.9361723721654,176.01849754705378,887.6659622049433,517.177634324813
1.1339102191219919,-0.4661955201095074,2.100615255573584,2.4442481626538664,-1.8606971426107926,2.7084638507320093,126.38307731679588,704.4067330395239,458.171907541297,136.78179912234378,888.8222006162391,488.96603016155
-0.4126148153823541,1.4778408159139849,-2.9525726810143818,0.9698353908663533,0.7936777275224292,0.18624395493160195,257.25115815507024,775.5808430580566,182.27568709098853,112.3686662237424,995.1909778616171,1.825652568613233
-1.6585387968115661,-2.5958261511099776,1.5409597058920754,1.577551675038345,-1.8029066089398118,1.8372827116732742,349.38813526593106,705.7191909566934,964.5548852329696,533.052362006541,1149.9599204910958,1000.9913703782095
1.511663633581839,-0.03148629557518756,-0.7838348730780216,0.8187505186402371,1.6100804465138099,-1.2399386864714743,32.26240475685094,395.3125212631596,20.52931552963799,112.3686662237424,995.1909778616171,1.825652568613233
1.179741840320795,1.0038783116875623,-2.320206097603407,1.3828795634471822,0.5237969310381851,1.654850933593294,605.2878824283227,18.49207433934541,732.8903863349564,175.46801298059938,887.1885220050943,516.709641164965
-1.7409749038610531,-1.4794590187285954,-0.14460661871513114,1.173732197471418,-2.2455036567243,-2.603147192314438,585.0905656999043,265.47537680173406,643.7173176630531,175.46801298059938,887.1885220050943,516.709641164965
2.4546980771393843,1.6418313213608506,3.0976489295826006,0.3413054210253281,2.993750709974771,-2.8747618608235843,458.8248602039008,952.1923365995297,191.05243311213604,242.0128000857644,1043.167630439864,428.577532478993
-0.8306723257335933,-0.20576335896597087,-1.6869520810515977,0.28676873391599056,-2.9943106585419783,-2.7525165134345024,311.2400628669569,973.7876723494868,745.972619620733,170.3618535062149,937.6069225700173,570.105914629479
-1.6715471505276251,1.3864387335377186,-1.4779323824923194,1.1748540927175082,0.43684782613287565,-1.3810682384274253,131.84011559758835,397.60343442154533,585.7461698094654,143.3772098515795,888.6271136791881,524.6363522020561
1.7801170561466426,1.8494897374460697,1.9835908664700108,-0.9127567572378901,1.4757097670765393,2.3988429082796694,433.88984458637526,849.5756625479364,195.20640818744639,242.0128000857644,1043.167630439864,428.577532478993
-1.890882176590028,0.7533354865018445,0.6113695806466972,-1.9152675198711133,-1.3160486704378689,0.744946833527377,279.5709039367309,396.3635519997758,733.603390639002,175.46801298059938,887.1885220050943,516.709641164965
-2.007603185274596,-1.7548947826708972,-2.8526017369151346,1.7470004101694538,-1.326722993584373,2.9566033581439415,490.76016278761836,394.9731907145347,21.067090179891167,112.3686662237424,995.1909778616171,1.825652568613233
0.45637641177941424,1.6336186352410147,-1.373374412244092,2.8443637755778592,-2.4918339496657547,-0.5132044348053957,276.4624200353364,107.46063736522693,541.9128034276744,175.46801298059938,887.1885220050943,516.709641164965
0.06271569212276074,0.3067344516695716,-2.322575509018879,2.580846804072543,-1.366124262081472,2.8820967579860124,927.7644463690694,142.80939998783958,502.7611603998797,176.01849754705378,887.6659622049433,517.177634324813
-1.0566820912235828,0.9252093167605251,-1.937748069719189,-0.09429456466218777,-2.7088996585987304,1.564255935031877,68.34718076612623,379.1635408203934,308.81987097175977,136.78179912234378,888.8222006162391,488.96603016155
1.7046775848564106,1.8774170688497707,0.11528160869828019,2.137524096036122,1.8007574855660788,1.9485540722488048,391.78750537205843,200.21747225474095,438.78945409816237,174.1567496764443,887.1872138219474,494.748753504494
0.043199982751834565,1.054580480787486,2.6450134539809644,-2.4636136625482457,0.4181916426428507,2.1688170738164203,29.913716725909147,917.7583589320434,55.813277407390835,-17.678065881694394,1000.955133591488,9.590273457353643
0.740585003872694,1.2338667182010807,1.8392144783472144,2.3451121034960014,0.5712800889931313,0.6034242092100639,996.3755245584249,772.4330039563688,844.3472076804698,561.1011082605346,1175.6331118776502,999.5233521193206
-0.9365518675998459,-0.54961797991001,0.8045544129172879,-0.877989592925223,-2.632855171366457,0.32223437730027893,428.6929633052383,177.2039539955379,584.8265322395719,175.46801298059938,887.1885220050943,516.709641164965
0.20036241953082712,-1.1454356589467374,2.467627175657591,0.7373633929678722,2.583364439704413,2.523974964680529,115.4820530413464,972.8066272581076,114.89397268351243,112.3686662237424,995.1909778616171,1.825652568613233
1.4016584050911085,-0.0971968260028171,-1.0277014442365475,-1.6772578323122265,-2.093672691327323,2.612642840576961,181.310726089844,636.3790677934668,382.3863507467745,174.1567496764443,887.1872138219474,494.748753504494
-2.700088947431237,1.5280125973891945,-1.2807416021530906,0.8428234837210251,-2.2592921919503173,2.7798864631736677,994.2650393615821,127.42913957423873,216.47121808264015,174.6476313654371,887.6645945589253,494.21852449795597
-1.8026267973402574,0.3327993016450699,2.9669747751565367,-0.9360948734532886,0.1241141807958579,-2.607646472829412,539.7286463457493,554.0518390281302,145.1179811628962,174.6476313654371,887.6645945589253,494.21852449795597
2.9482121884550008,-0.9168357791919637,1.8759735968344922,-0.33677882362715694,0.6553417084444719,0.06375106209276726,189.85346326127518,743.5311847669392,745.045700687068,169.84324129226673,932.6115121259563,565.128273032607
0.20389117404790724,-1.5750474528146394,2.0293490522530844,-1.6342489867767833,-0.5663504682105196,-2.5829454805613556,457.2412028091184,949.4281871104711,496.1314437319755,242.0128000857644,1043.167630439864,428.577532478993
-1.4301929562461748,2.784914591138608,1.571326696260309,0.3763998430402742,-1.9479623605896368,1.5678553113253635,496.8342522883742,864.8943210956191,998.840612053307,533.052362006541,1149.9599204910958,1000.9913703782095
-1.8823716120222567,-2.5885636346542524,-1.3752033562196053,-2.374638067972015,1.8027637198779303,0.9922093982302247,976.3092028684955,524.5186348912881,565.088183084625,508.3028411611554,1187.45880499025,830.566564709413
-2.378283754001207,0.24691860693528556,0.9275319559560629,2.7599778136863717,-2.255970153708672,-0.17205531808107466,443.71378335650934,672.7665854302637,553.4695097515469,176.01849754705378,887.6659622049433,517.177634324813
2.185394994989559,-1.2120567103279112,-2.828228196978951,2.84125996992746,3.0872137956818193,1.4901714387050369,752.2712203080281,853.0608750987662,623.5776308206181,508.3028411611554,1187.45880499025,830.566564709413
2.18356375691908,0.5279193924594425,1.7494583759129645,0.33585610419964684,3.135020896716002,0.40197988145841235,509.20535819472514,860.0157109564866,351.0412560409848,242.0128000857644,1043.167630439864,428.577532478993
-2.860241978670855,2.8507376775371727,1.625482922117178,1.5295442678925886,1.5308803165136107,-3.103397336039332,512.3870799240491,440.4386440319733,564.9572681733408,175.46801298059938,887.1885220050943,516.709641164965
1.0594204825353133,-0.31178953060751935,2.4737480908444107,1.5321864596269235,-0.03535033284864264,-0.11148296009744652,502.7821962887964,988.3043027386086,778.8677626885332,508.3028411611554,1187.45880499025,830.566564709413
2.95527638235495,-1.5915327368056043,2.7889421375549635,-2.7201144071437136,1.3829376543321157,-1.3411064973731843,259.37055102669524,258.85936828113364,749.0105061477072,175.46801298059938,887.1885220050943,516.709641164965
-2.8481174222238,0.7279659142125334,1.7786186492495428,-3.0688927555346623,-0.9646829328374129,-1.9294284696335025,302.85874101524143,111.41102020949134,23.538679257035454,112.3686662237424,995.1909778616171,1.825652568613233
-0.37199303434126874,0.8801537108763844,-0.1600513434209736,-2.907351528715492,-1.343399981281744,2.745441661671804,64.48115358066798,862.2105683697738,172.52502715736406,65.0453799186954,1043.851391964895,199.995676445362
1.3201541661821956,-2.5684904378283155,-2.5031444859205845,-1.7964670179622513,0.1321336320251678,-0.5434001317998858,712.0266338491363,429.60839714713137,34.53649616496979,112.3686662237424,995.1909778616171,1.825652568613233
-1.961380324744831,2.7298088688840263,2.4399076768859995,-1.3889325133986246,-1.9391984697853208,2.213304631320354,990.0829394448332,314.1657472484973,590.8179595296989,176.01849754705378,887.6659622049433,517.177634324813
2.699048152466567,-1.019065497240223,-2.059477545053821,2.475019391353067,-2.3648914056552983,-0.20976071967339438,461.6300017826873,129.59174237577398,255.7890361188332,174.1567496764443,887.1872138219474,494.748753504494
-1.324799701405401,-0.09320782460503274,-2.39431648951492,2.182011692426838,-1.7909689461585576,-2.26754418334888,981.0343345563449,416.54687595693474,845.7580819968372,535.8768926792286,1149.98173110692,1000.8445685523207
0.1714350381531009,-2.648285075536579,2.1014050065407472,-1.1757155846143759,0.6832341195447253,-1.4024263191666608,176.6186067008628,659.7557771700062,537.7256480170321,175.46801298059938,887.1885220050943,516.709641164965
1.8981447650794792,-3.1200265858522562,1.012722828449875,1.500540940165756,2.968684547720608,1.539995229733413,37.67046107285521,281.0291598908441,250.5722124546872,136.78179912234378,888.8222006162391,488.96603016155
0.7678179977223887,-1.0144006554201042,-0.16170195113126917,3.015394772269481,1.0092545364192702,0.6946027656517968,96.86259990701262,197.95329697780429,333.00154712653983,136.78179912234378,888.8222006162391,488.96603016155
2.414891912322143,-1.2215455490911777,-0.1862908928558138,2.6351788377220986,-2.340679180272505,2.39977861522417,376.44190006143964,484.16566583353506,484.7669424677849,174.1567496764443,887.1872138219474,494.748753504494
-0.7111817196914529,-1.3206713992512593,-0.7056307216194835,-2.159733644285792,0.4433875336831212,-0.980083611374329,404.5003234823086,881.6054563535527,574.3718321892163,199.42881169859862,936.2348268584715,537.315225481482
-2.428373185293963,2.8669068739295813,-2.270670950453063,0.26145463325879303,-0.8230457877493955,-1.2993985300242539,246.6657614882094,422.12392334955354,70.33660121148432,112.3686662237424,995.1909778616171,1.825652568613233
1.9849783967474535,1.8908391860856595,1.396330679014901,-0.7226014755920209,-1.2390190494787916,0.7475327358566712,679.1209462999086,990.5404838026468,475.67259322608754,508.3028411611554,1187.45880499025,830.566564709413
0.09697990435014292,-2.1671642279196113,-1.3006296622773976,2.0939110700661336,-1.3182077666331513,-0.4462714875456748,439.1287908807525,723.6747913148247,961.1526619938567,533.052362006541,1149.9599204910958,1000.9913703782095
-1.3898646979417035,-1.0593868792964485,-2.781470133450839,1.63018696466201,2.795746576963568,1.9198057360948608,21.13202120248947,418.1752474821999,803.4062616606751,138.92750271096108,888.8243412795712,524.902028151412
0.09667665805551806,2.0765246085467606,-0.4662972264362617,-1.8661790791586679,-1.7099106168723224,-2.2007953688455224,281.0079968759915,794.59592074243,273.31649046467675,162.6134794362078,937.5991923968743,440.337032999423
0.0646555859094815,-0.7258949620473936,0.7947849132945821,3.1054175893775673,-1.6153768530092265,2.6570969923697305,709.0896910196047,267.78343066071307,208.3263251979539,174.6476313654371,887.6645945589253,494.21852449795597
-1.2102913849564132,1.5786824854041566,2.6204113636860464,0.09139003101289012,-1.1638171219297098,-0.531418780523965,17.026282446750194,107.46517006505873,721.675919541703,138.92750271096108,888.8243412795712,524.902028151412
-0.002798558472727919,-3.015411691265507,3.0094699129876066,0.2861334213975604,-2.6533641853477925,-1.517189016965993,74.55482341721597,451.4822551556594,742.3142996672839,138.92750271096108,888.8243412795712,524.902028151412
-2.7436848426425784,-1.8244005045589746,1.1787281307920292,0.32493481402276503,2.7694196745045447,-1.77449637598656,174.67023287379368,153.11050340982513,286.65722302322285,174.1567496764443,887.1872138219474,494.748753504494
1.8002516228154732,-1.295232526833709,0.355987269076941,0.5084750230033506,2.9895856301844335,-1.6829185375218125,347.3962919087199,154.96542703070682,569.9319012201635,175.46801298059938,887.1885220050943,516.709641164965
2.932856665617334,-1.7629387896773596,-1.232928417764117,-0.08058971581886043,0.7751368936554379,0.6395104991359677,950.9206345675443,365.3214399937019,7.118510596281991,112.3686662237424,995.1909778616171,1.825652568613233
2.8257130316088537,0.33195494569966577,-2.6592365760929826,1.0906232670311384,2.6916207463169117,1.0142896215148518,457.72508664937607,946.2358173018434,382.23054565017276,242.0128000857644,1043.167630439864,428.577532478993
1.490582204405162,2.5727422785311385,0.7964713481666337,-1.7732552377786475,-0.2304475141486919,0.05083075766067324,383.00050545745034,835.8208400743929,595.3191579361178,199.42881169859862,936.2348268584715,537.315225481482
2.386462502899791,1.14645228426473,-1.2948649040460756,1.57731512631742,-2.0113112236050084,1.3587504344020687,655.902967919449,173.79630848625393,76.853933171255,174.6476313654371,887.6645945589253,494.21852449795597
3.0196616564762726,2.854276264834736,2.135053660993478,0.1582858134902958,1.2290860547048839,0.8804902481534178,850.6521640342278,495.47106841555086,311.4328592295303,174.6476313654371,887.6645945589253,494.21852449795597
2.0329297493446523,0.9321722276560456,-0.17175524109809848,-2.0883954280001924,-2.4190472373779013,0.3345974800184446,921.6712498218764,380.5831523083022,814.4052970019972,535.8768926792286,1149.98173110692,1000.8445685523207
2.3663011585758085,1.097316771974997,0.39864527010077566,-1.4020781745638164,2.2375938756131397,-2.2646079864388757,147.32073758785646,971.2686488097274,392.6035400850839,162.6134794362078,937.5991923968743,440.337032999423
-1.393319652077117,2.927645377234012,3.075255780393639,1.5287952872541828,1.4599206126219268,1.6201548835864692,858.0691871780216,364.5561135397373,78.5813846594896,174.6476313654371,887.6645945589253,494.21852449795597
-0.35652244711199943,-2.049398707399094,2.978337106644773,-1.3031092170482625,-1.4613693872083138,1.4799734535273856,641.9462957535803,973.3136023696209,161.5894169371489,242.0128000857644,1043.167630439864,428.577532478993
-2.193819795305905,2.3289241353526124,-1.2902156618137803,-1.0268394074496965,-0.5192201390811424,-2.3450712450240676,177.04955270062374,692.4654351086876,581.2091244178051,175.46801298059938,887.1885220050943,516.709641164965
-0.394706593055679,-3.0850427243992615,-1.8344064513154033,-0.6506257404980715,0.3032025707719792,1.4628563245514332,417.83391083901546,235.0571004140143,623.6808109024389,175.46801298059938,887.1885220050943,516.709641164965
2.219395425484376,-0.7285735500774639,1.454123168347043,0.4314416803026031,2.4549226165893643,-2.1805676629951254,889.2621540663906,369.29927822423303,956.8028574899286,568.1946326385457,1135.9042573625852,1136.48307128349
0.45970538134339467,1.4701666677148175,-3.133472936438861,1.2841952554747298,2.277208369435834,-2.8530108614834706,843.2367597691277,48.935006342786465,682.7749619538465,176.01849754705378,887.6659622049433,517.177634324813
-0.33648963999851933,1.4890936363933696,-1.589524086764451,0.05877787570207804,0.760848779942878,1.2225304388794385,855.019438585625,694.1378283522149,342.5567479964121,242.0128000857644,1043.167630439864,428.577532478993
-2.573520474438819,-2.9744366263627406,2.382898121166482,-1.9933654855733176,-1.0323493265512282,-0.05157274952785684,835.5410625909277,111.70406420858137,857.477415120272,176.01849754705378,887.6659622049433,517.177634324813
-0.44329200450664574,1.3002816632559204,2.4953872612652717,0.4418732438469628,0.5595973852497496,2.5572268648095564,931.1326135105156,722.1848883209485,413.9834150141688,508.3028411611554,1187.45880499025,830.566564709413
0.6102583339973622,2.728725129500826,1.7787365380187516,0.1166564719884251,-0.383968970787981,-2.4475554014710843,178.2539429806731,392.20478942605564,325.31547353547506,174.1567496764443,887.1872138219474,494.748753504494
0.9953568658925249,-1.4067831331641292,-1.4938813744797599,0.6769093387172678,-1.2211382194815845,2.2847781877586923,372.2864782808213,658.2034562471385,405.76265380846166,174.6476313654371,887.6645945589253,494.21852449795597
1.8935219554241307,2.8958807474352284,2.8067065987502433,-0.6532160484710383,2.4684054861622435,0.058252074822988664,485.322404948188,225.93263557156828,359.22900622084285,174.1567496764443,887.1872138219474,494.748753504494
0.2750456152353138,0.30037092422756206,-1.9372472760866135,-1.295844455163398,3.055712892371673,-0.6215582684826861,546.3131600533874,79.41818327812511,9.739691122579885,174.6476313654371,887.6645945589253,494.21852449795597
0.4479515559298646,-0.8433978368896073,0.3390619649433022,2.8162565764067313,0.6327911436778169,-0.4170101622446869,478.8073765186749,496.55216881766984,31.733560592465572,112.3686662237424,995.1909778616171,1.825652568613233
0.6291996560497464,2.6932438331095625,1.75961613388277,-0.8642198121219109,-2.4852371801902806,-1.9014010023648573,219.62033664837,243.23642991598038,157.16708397640434,174.1567496764443,887.1872138219474,494.748753504494
-0.48866930568190403,1.9773670540270967,0.9267978947532933,-1.1090922355727328,-1.3690283305555981,-1.234744653827004,279.44084526807586,948.0587353036399,704.9887192562602,170.3618535062149,937.6069225700173,570.105914629479
1.5706238357862388,-1.3269094138178337,-0.1843295514783163,1.4605538552997048,-0.9269114797635951,-0.7932041849638636,81.64340450483165,872.1434561789254,940.5900095786645,-184.65939234226659,1016.9148250394812,1085.1989863481979
1.9316617326546313,-0.22974828985455265,-1.6584716452057393,0.9105353607482787,-0.6714377852440769,2.466463102723681,377.2232068554318,75.33429672211022,187.85272615877068,174.1567496764443,887.1872138219474,494.748753504494
-1.6182169035559184,2.6181003982468045,2.910926086816378,2.6240362237463533,-1.113409800800718,-2.357140830785249,151.3199477316086,538.3012236296997,739.2640248189956,143.3772098515795,888.6271136791881,524.6363522020561
2.025751582748871,-1.827501649179806,-2.7979897787955363,1.6876569136064328,-2.4860438309860973,0.5201291958946674,675.4954643852875,401.85994036974927,137.56974346702722,174.6476313654371,887.6645945589253,494.21852449795597
1.0373817133076475,-0.5412896448178381,-0.8132077589162665,1.5410631411387916,-1.1593271900563236,-2.0960514495927036,354.6869462182608,210.67672097560975,835.4117180546573,175.46801298059938,887.1885220050943,516.709641164965
-2.2989944925717514,2.2377365344849487,-0.47332595766573027,-0.11374821428779258,1.9690603955305637,2.742227562997787,15.222706202293823,982.2950936567156,510.5280673859106,65.73374631572318,941.9770029682386,477.17657812561697
0.20889015176829995,-0.6767375502951709,-2.8249827568942925,2.6274084955347234,0.030493104562105966,-0.5147508233660507,948.3699256397745,539.4917100305702,572.0828325134662,508.3028411611554,1187.45880499025,830.566564709413
-0.28440770796347126,-2.6479863313701792,1.6726915335353345,1.9583270643973263,0.7720734853876152,2.371799038791356,46.001425016518716,27.79749135200671,439.7884045200534,136.78179912234378,888.8222006162391,488.96603016155
-2.9706370426494715,-2.191831230677366,-1.0626293869850962,2.487243425772446,-2.838774861314501,-1.7467679269567487,881.9445747671082,736.9429382192562,103.91391423147667,242.0128000857644,1043.167630439864,428.577532478993
2.4445046642913866,-1.3089565563302357,-2.3908304512812135,2.7632041408252457,-1.5209252902803945,2.81041274906905,730.0147309087627,757.411380322404,978.0692887242215,535.8768926792286,1149.98173110692,1000.8445685523207
0.9159911692717815,-1.9072943851141948,-1.4889153414807146,0.6294031553280743,0.31978572660025417,1.1446162104436732,153.1798739609991,989.6251781006908,578.2770479207496,170.3618535062149,937.6069225700173,570.105914629479
2.3776340529735656,-2.279256995440979,-2.94294091650181,-2.6369474934869213,0.24577791468151045,0.49430469345609396,260.4142647165023,903.8156527458627,500.85953759797206,199.42881169859862,936.2348268584715,537.315225481482
-2.0891079059537523,1.7814078913690814,-1.7575064710494972,-0.06001066237253472,-0.7762241315001774,-2.534186188217583,902.0808838436609,283.8045435901688,589.4462341700277,176.01849754705378,887.6659622049433,517.177634324813
-2.339952548019404,2.0800978000866177,-2.6714307359311924,-0.0014671504974073102,0.15415540778136183,3.0599720141339333,977.049742381613,614.3027874749059,103.96834651663723,242.0128000857644,1043.167630439864,428.577532478993
0.9104376317576657,0.5331360332234611,-1.989697193367888,1.8720835591233378,2.8468484490823274,2.97103315062136,85.19785621336318,713.7954130421331,448.727798690135,136.78179912234378,888.8222006162391,488.96603016155
-2.7177778491148814,-1.227518347624847,-1.3668886738464665,1.9295969988147004,0.32239836717202364,3.1407057994803003,890.4329590156412,986.5902822441866,741.729632429105,508.3028411611554,1187.45880499025,830.566564709413
2.9075048706632547,-0.261156831422122,1.8143950249498753,-0.13624287492977016,2.438373890090829,-1.4792613835478705,987.8757605546751,680.6471559802818,44.675134620678406,242.0128000857644,1043.167630439864,428.577532478993
-1.4160081492823142,2.7063823541118017,-1.8975209972064415,-2.594717714936976,-0.7907217587540614,-2.6245345046620283,755.0171775564754,430.5338668480919,445.651909705421,174.6476313654371,887.6645945589253,494.21852449795597
2.1612934018100534,-3.0794073886634217,-2.982913057517434,-1.8022956019477392,-1.6795717340357932,-1.4418656430908974,789.8529439424909,985.2343273131861,243.78631901002677,242.0128000857644,1043.167630439864,428.577532478993
-0.5980699061372077,1.9034571225326893,-2.766092415335879,0.7489526947029725,2.6772149615747827,0.2532307253779602,310.65725858632885,762.934988567695,426.5851671358192,174.6476313654371,887.6645945589253,494.21852449795597
-2.3079623441710853,-2.69742980729453,-1.496408226627304,-2.7272586957591733,-2.8240268293479307,-1.2941763225177234,496.9863839427142,395.85713806392033,306.8901505495193,174.6476313654371,887.6645945589253,494.21852449795597
2.73093090568213,2.6249960291955547,0.3409660372003147,2.9235425984090835,2.217751464563741,-2.494691576724702,592.2840050306303,186.81024023139824,940.7338749871235,176.01849754705378,887.6659622049433,517.177634324813
-1.9792398797965653,2.1223555872388937,2.351944257555287,0.7091291512507851,-1.023204474080833,-0.30771709304763695,299.743115018558,861.7618327698987,764.4341087310224,170.3618535062149,937.6069225700173,570.105914629479
2.277328977050292,0.010275083629958104,1.6117577202485336,-0.29822972666480574,0.014348596249345924,1.5336958044706321,697.0220373282269,440.7608241571951,962.5104141811034,568.1946326385457,1135.9042573625852,1136.48307128349
-1.578160743429403,-2.25895953067944,-0.25995344842645984,0.8072409586955307,-2.6192335611807307,-1.0087636494415873,2.349054030412523,511.174979375816,560.5048930679022,138.92750271096108,888.8243412795712,524.902028151412
2.27007118537379,-2.1751977157994142,3.122783061782795,0.46354708199917205,-1.5699852912399777,1.7039231180672507,531.090616676296,356.44484122957607,826.7114977269985,176.01849754705378,887.6659622049433,517.177634324813
-0.2515395735239099,-1.6003766055028712,-0.9979602711996041,0.079440253370334,0.36094830501684294,-0.2717521486076775,964.3770134895888,600.5980921661086,862.7347696128618,535.8768926792286,1149.98173110692,1000.8445685523207
1.0308011624636837,2.592621990263841,-0.826424793414597,1.6076339899960734,1.2651464455899797,-0.08836435923627173,38.222391570223,672.8192390829838,801.3215331982115,102.03046636416582,935.6172269857759,569.177129010804
-2.238151102760812,1.2554581909333669,2.8376926718129045,-0.9203130281182954,1.0422939680193135,1.3241072398216334,292.3861489836316,211.28455851490546,363.89828383562195,174.1567496764443,887.1872138219474,494.748753504494
1.7521056524692682,1.3388461014682997,1.3091119861163616,-1.8581122314916352,-0.40169158384342074,1.0627076351880946,522.5533357826607,23.273477263732968,751.1068674324441,175.46801298059938,887.1885220050943,516.709641164965
2.723374830155235,2.459387623609664,-2.6510893594842626,2.2792465181832258,-0.5093293779199528,-0.09478963911611293,65.64566048478737,783.1917317563513,510.98405266478665,136.78179912234378,888.8222006162391,488.96603016155
2.3563491479099126,3.124062295056082,1.4705317617086058,2.0632645509182757,2.7187026366060953,3.128774660220108,376.9035928607228,118.72548161321438,818.9986970704401,175.46801298059938,887.1885220050943,516.709641164965
-1.9512194106929075,2.7467698777988208,-2.376637451222508,1.0226487449731287,-2.4951016128127774,-0.7297868262912801,109.06911256896935,448.12290770562424,214.9989662812961,142.7652792630585,888.5569904815491,488.60877816347397
2.1859008812201512,0.6124359748791091,-3.0643323504207465,1.0210188493004209,-2.4479016454705587,-2.819599585938934,959.7320187754987,438.3523540532919,972.4007140832,568.1946326385457,1135.9042573625852,1136.48307128349
2.4999422770035427,0.5981074496138037,-0.8266214652532917,2.0307914263242726,3.0583547582832207,0.07533767945191139,305.2810185836209,328.78506411628285,845.7337014666575,175.46801298059938,887.1885220050943,516.709641164965
1.8407223696949204,-2.5971010696980343,-0.11371629650661319,-2.8991569258941863,-0.8711304582224875,-1.205663118955882,658.6898765750437,358.0556816866184,81.30360489911781,174.6476313654371,887.6645945589253,494.21852449795597
-2.4670904893500643,2.204020131628356,1.2853864741739862,0.8856956276269088,0.8269319185012614,0.5639545879562724,14.010007457424312,201.83193750908092,957.2184993041365,-208.1982517952714,967.9128549019696,1108.4579420060531
0.7376885128718498,1.5202190225498118,-1.0253511675983824,-2.090334002831506,-2.314926704257667,0.6841822471366981,450.36427963004576,26.411219670724464,455.91408528589795,174.1567496764443,887.1872138219474,494.748753504494
1.18534542481612,2.4306315959760934,0.6915441698934623,0.42123645879387706,0.31170940134982184,2.8360869869014103,954.7714364684017,125.83183568655976,458.2078632513079,174.6476313654371,887.6645945589253,494.21852449795597
-2.8965424390433068,-3.1180711995501307,-2.5499870692317925,0.5497015579731626,-0.022452776126046015,-0.12938954337155462,133.50192244577752,560.9673428918178,156.0812928636922,112.3686662237424,995.1909778616171,1.825652568613233
-2.29177590665729,-2.0379863539785195,-2.2539205089946477,-2.5854463647354153,0.9255183630733006,2.0814067084515697,144.02573523794138,436.39213949953137,177.61173564989053,142.7652792630585,888.5569904815491,488.60877816347397
2.660266404595479,0.2376415328367667,-0.9804211546060602,1.419621529003292,-1.740906760115623,-2.1217443676036685,680.1048282418459,853.8995822029291,240.16976079505804,242.0128000857644,1043.167630439864,428.577532478993
2.532538629015674,-0.8601168865547764,0.6540779325732005,2.7147704284294694,2.7233766352286146,-1.9059262294702815,196.00196164763219,153.31176785904566,545.4358924021088,175.46801298059938,887.1885220050943,516.709641164965
-0.5708403613242234,3.0231592691863556,-0.5165249493265938,0.9589452771826288,1.0086692756904387,2.6453624036161196,353.5474497819443,478.7683661802594,90.71437865888431,112.3686662237424,995.1909778616171,1.825652568613233
1.4789790053032101,-2.957596902342458,2.070827784894292,-0.21868628454715333,2.332389801071721,-1.9631530107245552,80.9353856783408,756.7945780951686,696.8746560945337,102.03046636416582,935.6172269857759,569.177129010804
1.1784320947704758,-1.893433121838998,0.9497045790661813,0.2964258815315741,2.485530588804618,2.3619137609168286,540.4081179193713,520.367707694097,821.6947066858024,176.01849754705378,887.6659622049433,517.177634324813
-2.6730382705148132,-0.119696687775249,2.274084021605554,0.959502923510942,-2.398492692888808,1.7549630603766744,662.0947250625339,956.4374739555325,467.65313890909056,242.0128000857644,1043.167630439864,428.577532478993
-2.851478305850206,1.3540881436563792,1.5721851478388587,0.36583379893795565,2.496395089892612,1.0065517582634511,247.06221590199416,539.8048393785202,427.0146135620378,174.1567496764443,887.1872138219474,494.748753504494
-0.6569743472887377,0.20868623899462735,3.123052326039943,-0.16987591815229397,0.3309922558660148,1.3694038370531931,859.2462306335534,330.34239255823115,981.523647262149,568.1946326385457,1135.9042573625852,1136.48307128349
1.3412099098108712,1.2820981140110144,-0.48488925873987476,-2.1731179272510626,1.9380174008728046,1.5417971381516544,657.3873342424923,645.885062055222,763.9202763539474,508.3028411611554,1187.45880499025,830.566564709413
-2.173828971794261,-2.2932035790946275,2.683577717104188,-2.190719160470139,0.8911669129068986,-2.7655265563144495,94.02020711280423,241.25013167779963,393.9658666636775,136.78179912234378,888.8222006162391,488.96603016155
0.9042675041713206,-1.7583614489600923,-2.9416245334527376,-1.040590774284274,0.7705010910998795,-3.127359080705127,384.00412339735936,404.6781420444052,206.351063124114,174.6476313654371,887.6645945589253,494.21852449795597
-0.34348323620602805,1.9365291734924153,0.4561902313999511,1.784468933775618,-3.137321901766152,2.0768862505552415,32.810438616830865,716.4457911817723,136.98932269803078,-66.75175444812159,997.9922570783631,148.762808295422
0.2716768168797117,1.4187307495473718,1.385912219590531,0.15289655220296527,-2.8804803579191085,-0.9652679983757251,191.30941694096882,879.282007616981,554.5392762947188,176.01849754705378,887.6659622049433,517.177634324813
1.5885717980940317,-1.3865908286672568,-2.8804714155638265,2.616625474369944,-0.744541800373367,-0.03746568901770608,143.57453028681667,682.2171198298137,542.8548669081531,143.3772098515795,888.6271136791881,524.6363522020561
-1.5156651539696335,0.9326509281692852,2.112432527677992,1.1619357842848501,2.1420554752674965,0.13065349457194664,522.3200737266818,470.7466665254495,411.2738455996393,174.6476313654371,887.6645945589253,494.21852449795597
0.17017288165170363,-3.0902551567261862,-1.5280524198580394,-0.4133195730086152,-0.9874545016067144,-1.7871755396811289,172.10658485539088,960.0190260247449,194.71413745340226,76.13984419186241,1053.561120402785,194.323753346917
3.0699353194975894,0.706080370219154,-1.8557551959696876,-2.008858205053624,-0.9025418560652789,3.0458792186433223,273.8530048957459,934.8657888839398,221.28465152717436,80.0174880546164,1057.388311502552,194.091995011398
1.0171541163946642,0.8851364053462181,0.5984702503699957,-0.0264344154807592,0.9249560292432957,-0.816377234451656,152.73575005308294,635.7231644075142,656.4875267849352,143.3772098515795,888.6271136791881,524.6363522020561
-1.81343890311779,-1.3858821593062973,1.417608913022839,-2.855002792708465,1.011457494020707,-2.652916937095989,351.69310113531014,212.92939196330153,230.42257246110665,174.1567496764443,887.1872138219474,494.748753504494
-1.5193604018993943,-0.31904449342536045,2.926544170869117,2.4983811658524413,-1.432454996745457,3.066893329379244,797.2108290689017,393.34627642878064,49.98576574882474,174.6476313654371,887.6645945589253,494.21852449795597
-1.7087805929192394,-2.92537678289891,0.394564594091797,-1.8231466926403765,0.12491681916819086,2.2091151379329883,663.1958653260784,159.65953069672366,187.0177052088603,174.6476313654371,887.6645945589253,494.21852449795597
2.256144762403511,-0.05843199852349956,-2.1943672644051193,-2.044300080146888,0.40180909956507893,-1.2115515253549525,36.69131183306229,87.80371371737627,39.788075614444196,112.3686662237424,995.1909778616171,1.825652568613233
0.3369317558364777,-2.8425978754435777,-2.7924464489789966,2.9463510772228076,-3.057264724238863,-2.2839706704142353,957.8929393373178,347.2609526670667,164.635919626384,174.6476313654371,887.6645945589253,494.21852449795597
-1.6193994180728017,0.4855989880809539,2.5640593260830755,-3.0739604753373895,-2.2988574831695416,2.4336961440418214,560.3875410174204,69.23166843753437,186.06876973394836,174.1567496764443,887.1872138219474,494.748753504494
0.19368856421365255,1.8925923204526542,-1.4689252439290612,-1.8041838367675294,-0.9665289285637995,1.6827087814129777,540.190646506237,884.3238552381717,80.9987651743771,112.3686662237424,995.1909778616171,1.825652568613233
2.3992840584578357,-1.1515796581812987,1.7741468477516174,2.4342137047883723,2.9976339211496423,-1.2154883441170572,853.0856354658671,655.8042181386559,703.8181345598341,508.3028411611554,1187.45880499025,830.566564709413
0.2751346444413758,-2.421774788370506,2.020712342891425,1.9041162518150268,1.5062370333496489,1.1586775228431998,288.4937333859651,835.2200659926822,202.8803921840372,162.6134794362078,937.5991923968743,440.337032999423
-1.981885380218217,-1.3136159848433124,1.2051835520576244,-0.24331104993520203,-2.925665664096203,-2.181753855745998,87.06618762148833,636.8922207285868,97.43904530039538,112.3686662237424,995.1909778616171,1.825652568613233
-2.935593188392817,-2.2963692515437337,-2.4828009829550077,2.004547235012824,-0.10622596930763084,0.40392977275572406,299.645602712147,21.174539125219717,707.8277773327446,175.46801298059938,887.1885220050943,516.709641164965
-2.3700237535269064,2.0188099687597383,2.661607959325413,-1.0642399838364134,1.4784838666890057,-1.3183690478949823,294.0305508181167,759.2348410753448,903.8200384586895,170.3618535062149,937.6069225700173,570.105914629479
1.4157011473950734,1.5599598601341045,0.33738791938744095,-2.2961873026123567,-2.282228478531067,-0.7345703245823754,325.0265415186606,517.2098160814722,763.8857428537607,176.01849754705378,887.6659622049433,517.177634324813
-1.8302921345996004,2.0829055210878344,0.7075317944698187,0.91156440610128,-1.4453810582372155,3.048601222042433,719.8689932352471,769.8935031217721,200.94898228030124,242.0128000857644,1043.167630439864,428.577532478993
-1.439018784547662,0.04989524779487775,-1.169019858825509,-1.6102587202768153,1.6090040090200093,0.46474239038739373,653.7645089482487,700.9674676327706,589.9576756519115,199.42881169859862,936.2348268584715,537.315225481482
-0.8978906822610848,-1.2577728446914518,-0.9863164098446666,1.3442103649217048,-1.2663353287579815,1.9329841186062549,19.77599737192337,115.4909765033516,301.52984361156024,136.78179912234378,888.8222006162391,488.96603016155
-3.073960879347779,-0.7602117505805288,-2.6882664644458654,2.4406742995313477,-0.02851947541087796,-1.1657109809984543,22.05554045609737,767.1018918693983,92.10777441696105,-17.678065881694394,1000.955133591488,9.590273457353643
2.849904760386271,-1.775125323910569,0.5426077055401946,3.0137670538649024,-1.2384562306996394,-1.7966607909382593,484.75281117502277,619.551617648918,584.7057846783432,176.01849754705378,887.6659622049433,517.177634324813
-0.4924756022789687,1.6036471517353803,1.9226164195818214,-0.567653149377759,-0.7708365909552981,0.18229205734911647,328.05694281147544,606.049737184886,331.4265424621745,174.6476313654371,887.6645945589253,494.21852449795597
2.8024809767003003,1.643454403489903,-1.4566785889031866,0.42252119441262703,3.1192137951754386,2.1042235235507434,927.921779914956,668.9554243947473,318.2920490818708,242.0128000857644,1043.167630439864,428.577532478993
1.12774651424274,2.9436002572545936,-0.9331583826398222,-0.6607155064536672,2.287966148088575,-3.0360447519116858,695.5942399516636,925.5486863291661,679.9071319649473,508.3028411611554,1187.45880499025,830.566564709413
2.4608031139572617,-0.6945124757602086,-2.1647321984580166,1.7609333681682529,-1.0334660712499448,-2.7755892233741286,307.29992063903177,691.5019304933601,369.6867637353454,174.6476313654371,887.6645945589253,494.21852449795597
1.6211584834079975,-0.6520463053709857,-1.3237238355734517,-1.5110621110019908,-2.3854751381922275,2.6289383839340257,769.921655915151,659.3483598850654,280.20645908325423,195.37581603121032,936.2307833832895,469.436118167299
-0.014621106925147398,0.23466091570720815,-2.3459612544464425,-0.12404855420264527,-0.18061992714323516,0.8364912138780798,264.15847082896516,119.71727380800957,347.2564353059795,174.1567496764443,887.1872138219474,494.748753504494
2.0034559107997465,-0.3553095160365096,-2.023854278765536,-2.0153950781340564,-1.4640315778371342,-1.2154096615842205,581.0577166837087,224.34830358598091,832.0839371624844,176.01849754705378,887.6659622049433,517.177634324813
-1.8360606917066202,-3.080597298211357,1.9205471647722216,0.7108685942106514,-2.332241712831335,-1.0716925600016651,974.1978723771703,527.2647734647978,668.4448498226404,508.3028411611554,1187.45880499025,830.566564709413
0.22407951150804006,-1.560886523843945,2.166238564351308,-2.538082117991494,2.7799837566799166,2.3538394786488324,409.01225801510043,8.849052738953755,955.6164026851432,175.46801298059938,887.1885220050943,516.709641164965
-0.4543067156447296,2.2397457110479966,2.7163033577903235,0.41194704535808846,-2.2300995799420162,-2.076724347279626,969.097585277379,215.03693478551978,572.1923858148132,176.01849754705378,887.6659622049433,517.177634324813
0.022636363640651247,-1.4440847039430473,-1.2228735705379674,-2.85099075779869,-0.3130115114915326,1.8117067924419406,368.3567983658271,492.96840705174736,69.98835676207105,112.3686662237424,995.1909778616171,1.825652568613233
-2.1898486605079355,-2.524538951246211,1.3225273263908717,-2.991863495553207,-2.4368541127274925,0.4457907261699896,157.1397279957336,770.5115587116725,713.2466883169442,169.84324129226673,932.6115121259563,565.128273032607
2.066848210286949,-1.1462737515106047,-1.8162892802375303,2.4848842476051374,-1.8638982663254198,-0.2651494064885802,27.695173826298046,713.8245053922977,258.0954987337962,94.87812106877462,935.6100914413358,449.39046904459803
-3.059028999270732,1.0803829996708485,0.007388924127183394,2.935986464862375,-1.6478064606388427,-2.819067441981582,483.08251913184375,545.0578558808653,837.5775550764873,176.01849754705378,887.6659622049433,517.177634324813
1.0290938843432818,-1.8966573998638192,-2.7026071860333767,2.551301933504246,2.5250385529064694,-0.3103628207835887,797.7288170460434,723.5329355419625,605.5287992883726,508.3028411611554,1187.45880499025,830.566564709413
2.001965818746142,-2.7421535448462806,0.029137982680683905,-2.3710505512451654,1.233267837287884,-0.7764875490605831,147.6303334040979,941.6696376747797,771.164018367785,102.54907857811389,940.6126374298359,574.1547706076769
-0.42657990725863026,1.4055893194809705,0.47791482570215216,-0.1484969081393901,-2.032789302948324,1.315553791782885,242.16371384777102,977.2746347905344,634.62539720389,170.3618535062149,937.6069225700173,570.105914629479
-1.0856505458823134,-2.265718269801913,-0.7870117406808532,1.9197688167567453,0.6917533163290992,-2.649523095892445,106.58888417760315,487.05460600996156,280.1172474665294,136.78179912234378,888.8222006162391,488.96603016155
-2.9443615272175254,2.7852852786230375,0.07766977256815011,-2.9063529628478846,2.020995526494586,0.815406893589008,424.9022385335767,494.84338212034027,644.3350776045984,176.01849754705378,887.6659622049433,517.177634324813
-2.5505640117707804,0.8069410980551361,-2.9977826192467063,-2.0587951399614317,2.006395672375856,2.0242658202353905,743.1205353711636,590.9041517663393,29.65003788824072,112.3686662237424,995.1909778616171,1.825652568613233
3.077229321019672,-2.4819112857582057,2.3014653033257284,0.46291884246391835,-0.4727746082831805,1.5841379905716124,657.7677351889446,207.98228828440656,546.5899253595965,175.46801298059938,887.1885220050943,516.709641164965
-0.750584480751253,-2.166907135950196,2.473244288517564,3.131053667236987,-1.4475268574750186,1.1809376365876316,681.5152220959711,783.3344163341528,498.3645560621949,199.42881169859862,936.2348268584715,537.315225481482
1.7402868955719244,-3.112872404559777,-0.9513254261149555,-2.061854818075087,-0.1737036598087367,-3.0898801061602112,705.5490076713608,924.7576949351769,498.71709177471035,508.3028411611554,1187.45880499025,830.566564709413
0.5841181904973092,1.3379106052390703,-1.6912090477954351,-0.5652072589340724,-0.798563349624756,1.9794122036499715,938.72185777496,170.7446498913323,154.80688222952043,174.6476313654371,887.6645945589253,494.21852449795597
-2.9227935809463275,2.1892693147406117,3.036034694662299,0.9521189312080356,1.2224822285809829,-2.1640638114371322,613.318273998214,93.17005258078426,555.2091667268846,175.46801298059938,887.1885220050943,516.709641164965
0.35921820426698226,-1.371382816104755,-2.053707299229619,-0.4005125413328363,-0.23426416322191024,0.46184905147920174,235.35296805576223,56.38567337076017,680.95873586234,175.46801298059938,887.1885220050943,516.709641164965
3.0917691374664695,1.204758284533999,-1.718055908603174,0.9482320537888711,0.015704329120579175,-0.15005939969054083,903.2398677787917,611.4934475929323,868.0373427963879,535.8768926792286,1149.98173110692,1000.8445685523207
